guntgbtgv/Go2_SDK_Python/joint_log_2026-07-21.csv
time_s,q0,qdot0,tau0,q1,qdot1,tau1,q2,qdot2,tau2,q3,qdot3,tau3,q4,qdot4,tau4,q5,qdot5,tau5,q6,qdot6,tau6,q7,qdot7,tau7,q8,qdot8,tau8,q9,qdot9,tau9,q10,qdot10,tau10,q11,qdot11,tau11,command_0,command_1,command_2,imu_accel_x,imu_accel_y,imu_accel_z
1.836007595062255859e+00,7.377892732620239258e-02,-1.550209522247314453e-02,1.731679737567901611e-01,1.248780727386474609e+00,5.813286080956459045e-02,-4.947656393051147461e-02,-2.800574779510498047e+00,-2.426414936780929565e-02,9.483008086681365967e-02,1.234791874885559082e-01,-3.875523805618286133e-02,1.236914098262786865e-01,1.203697443008422852e+00,-5.425733327865600586e-02,4.947656393051147461e-02,-2.762125015258789062e+00,3.639622405171394348e-02,-2.370752096176147461e-01,-1.278442740440368652e-01,4.263076186180114746e-02,0.000000000000000000e+00,1.270454049110412598e+00,3.875523805618286133e-03,-2.473828196525573730e-02,-2.819878578186035156e+00,-2.426414936780929565e-02,4.741504043340682983e-02,2.031444907188415527e-01,-3.487971425056457520e-02,0.000000000000000000e+00,1.297158718109130859e+00,6.200838088989257812e-02,2.473828196525573730e-02,-2.804792642593383789e+00,2.628616243600845337e-02,0.000000000000000000e+00,0.000000000000000000e+00,0.000000000000000000e+00,0.000000000000000000e+00,4.153940081596374512e-01,-3.639186620712280273e-01,9.586383819580078125e+00
1.870192289352416992e+00,7.377892732620239258e-02,-5.813286080956459045e-02,4.947656393051147461e-02,1.248780727386474609e+00,3.875523805618286133e-02,-4.947656393051147461e-02,-2.800559043884277344e+00,0.000000000000000000e+00,9.483008086681365967e-02,1.235094666481018066e-01,3.875523805618286133e-03,4.947656393051147461e-02,1.203697443008422852e+00,-3.875523805618286133e-02,7.421484589576721191e-02,-2.762140750885009766e+00,2.022012369707226753e-03,-4.741504043340682983e-02,-1.278745532035827637e-01,-7.751047611236572266e-03,0.000000000000000000e+00,1.270484328269958496e+00,6.200838088989257812e-02,0.000000000000000000e+00,-2.819862842559814453e+00,2.022012369707226753e-03,0.000000000000000000e+00,2.031444907188415527e-01,3.487971425056457520e-02,-4.947656393051147461e-02,1.297098159790039062e+00,5.813286080956459045e-02,2.473828196525573730e-02,-2.804792642593383789e+00,2.022012509405612946e-02,-4.741504043340682983e-02,0.000000000000000000e+00,0.000000000000000000e+00,0.000000000000000000e+00,4.201824069023132324e-01,-3.531447649002075195e-01,9.522936820983886719e+00
1.876549005508422852e+00,7.362753152847290039e-02,-2.325314283370971680e-02,-2.473828196525573730e-02,1.248992681503295898e+00,1.550209522247314453e-02,4.947656393051147461e-02,-2.800543069839477539e+00,2.426414936780929565e-02,9.483008086681365967e-02,1.232369542121887207e-01,-1.937761902809143066e-02,0.000000000000000000e+00,1.204000234603881836e+00,1.162657141685485840e-02,2.473828196525573730e-01,-2.761919498443603516e+00,-4.044024739414453506e-03,4.741504043340682983e-02,-1.281470358371734619e-01,0.000000000000000000e+00,-1.484296917915344238e-01,1.270605325698852539e+00,2.325314283370971680e-02,0.000000000000000000e+00,-2.819862842559814453e+00,-2.628616243600845337e-02,2.844902276992797852e-01,2.030536532402038574e-01,1.550209522247314453e-02,-2.473828196525573730e-02,1.297370672225952148e+00,3.875523805618286133e-03,1.236914098262786865e-01,-2.804760932922363281e+00,-3.235219791531562805e-02,2.370752096176147461e-01,0.000000000000000000e+00,0.000000000000000000e+00,0.000000000000000000e+00,4.213795065879821777e-01,-3.028665184974670410e-01,9.606734275817871094e+00
1.895483016967773438e+00,7.338529825210571289e-02,-5.425733327865600586e-02,0.000000000000000000e+00,1.249325752258300781e+00,9.688809514045715332e-02,0.000000000000000000e+00,-2.800479888916015625e+00,-1.617609895765781403e-02,3.319052755832672119e-01,1.229947209358215332e-01,7.751047611236572266e-03,-1.236914098262786865e-01,1.204424142837524414e+00,1.550209522247314453e-02,2.721211016178131104e-01,-2.761793136596679688e+00,2.022012509405612946e-02,2.844902276992797852e-01,-1.283589899539947510e-01,-1.162657141685485840e-02,-1.731679737567901611e-01,1.270787000656127930e+00,5.038180947303771973e-02,4.947656393051147461e-02,-2.819799661636352539e+00,0.000000000000000000e+00,4.741504192352294922e-01,2.030536532402038574e-01,1.085146665573120117e-01,4.947656393051147461e-02,1.297491788864135742e+00,-1.550209522247314453e-02,1.484296917915344238e-01,-2.804650306701660156e+00,1.617609895765781403e-02,4.741504192352294922e-01,0.000000000000000000e+00,0.000000000000000000e+00,0.000000000000000000e+00,4.441244006156921387e-01,-3.591302633285522461e-01,9.646238327026367188e+00
1.919252634048461914e+00,7.296144962310791016e-02,-1.007636189460754395e-01,-2.473828196525573730e-02,1.249931335449218750e+00,1.007636189460754395e-01,1.484296917915344238e-01,-2.800337791442871094e+00,2.830817364156246185e-02,5.215654373168945312e-01,1.225708723068237305e-01,-4.650628566741943359e-02,-2.226445376873016357e-01,1.205302238464355469e+00,2.325314283370971680e-02,4.452890753746032715e-01,-2.761698484420776367e+00,2.224213629961013794e-02,4.267353713512420654e-01,-1.287525892257690430e-01,-3.875523805618286133e-03,-2.226445376873016357e-01,1.271120071411132812e+00,0.000000000000000000e+00,1.484296917915344238e-01,-2.819704771041870117e+00,2.224213629961013794e-02,7.112256288528442383e-01,2.029325366020202637e-01,-4.263076186180114746e-02,0.000000000000000000e+00,1.297824859619140625e+00,3.875523805618286133e-03,2.226445376873016357e-01,-2.804571390151977539e+00,4.044025018811225891e-02,6.638105511665344238e-01,0.000000000000000000e+00,0.000000000000000000e+00,0.000000000000000000e+00,4.129997789859771729e-01,-3.256114423274993896e-01,9.586383819580078125e+00
1.942671656608581543e+00,7.226502895355224609e-02,0.000000000000000000e+00,-7.421484589576721191e-02,1.251747965812683105e+00,8.913704752922058105e-02,2.473828196525573730e-02,-2.800069332122802734e+00,-8.088049478828907013e-03,7.112256288528442383e-01,1.216928362846374512e-01,-3.487971425056457520e-02,-3.710742294788360596e-01,1.206664681434631348e+00,2.712866663932800293e-02,6.431953310966491699e-01,-2.761508941650390625e+00,2.022012369707226753e-03,5.215654373168945312e-01,-1.300242543220520020e-01,-5.813286080956459045e-02,-1.236914098262786865e-01,1.272149562835693359e+00,5.425733327865600586e-02,1.484296917915344238e-01,-2.819499492645263672e+00,-8.088049478828907013e-03,9.957158565521240234e-01,2.029930949211120605e-01,6.975942850112915039e-02,-2.473828196525573730e-02,1.298400163650512695e+00,-3.875523805618286133e-03,2.721211016178131104e-01,-2.804397583007812500e+00,2.224213629961013794e-02,9.008857607841491699e-01,0.000000000000000000e+00,0.000000000000000000e+00,0.000000000000000000e+00,4.118026793003082275e-01,-4.046200811862945557e-01,9.567230224609375000e+00
1.956376671791076660e+00,7.205313444137573242e-02,-3.875523805618286133e-03,-2.473828196525573730e-01,1.252626061439514160e+00,1.937761902809143066e-02,1.484296917915344238e-01,-2.799926996231079102e+00,6.066037341952323914e-02,9.957158565521240234e-01,1.212386488914489746e-01,-3.875523805618286133e-02,-4.452890753746032715e-01,1.207118868827819824e+00,3.487971425056457520e-02,6.431953310966491699e-01,-2.761429786682128906e+00,1.213207468390464783e-02,7.112256288528442383e-01,-1.305389702320098877e-01,5.425733327865600586e-02,-2.226445376873016357e-01,1.272785425186157227e+00,5.038180947303771973e-02,1.484296917915344238e-01,-2.819467782974243164e+00,-2.830817364156246185e-02,1.232791066169738770e+00,2.029930949211120605e-01,5.813286080956459045e-02,-2.473828196525573730e-02,1.298702955245971680e+00,4.263076186180114746e-02,2.721211016178131104e-01,-2.804366111755371094e+00,3.235219791531562805e-02,9.957158565521240234e-01,0.000000000000000000e+00,0.000000000000000000e+00,0.000000000000000000e+00,4.297592043876647949e-01,-3.711012601852416992e-01,9.581595420837402344e+00
1.982201337814331055e+00,7.153838872909545898e-02,-6.588390469551086426e-02,-3.215976655483245850e-01,1.253534317016601562e+00,7.363495230674743652e-02,3.463359475135803223e-01,-2.799516201019287109e+00,4.448427259922027588e-02,1.043130874633789062e+00,1.201486587524414062e-01,-8.526152372360229492e-02,-5.442422032356262207e-01,1.208208799362182617e+00,-2.712866663932800293e-02,7.916250228881835938e-01,-2.761145591735839844e+00,5.257232487201690674e-02,8.060556650161743164e-01,-1.315078437328338623e-01,-3.487971425056457520e-02,-2.226445376873016357e-01,1.273572564125061035e+00,1.123901903629302979e-01,2.721211016178131104e-01,-2.819183588027954102e+00,-1.213207468390464783e-02,1.327621102333068848e+00,2.029628157615661621e-01,3.875523805618286133e-03,-7.421484589576721191e-02,1.299308419227600098e+00,-1.937761902809143066e-02,2.721211016178131104e-01,-2.804144859313964844e+00,2.628616243600845337e-02,1.090545892715454102e+00,0.000000000000000000e+00,0.000000000000000000e+00,0.000000000000000000e+00,3.651157617568969727e-01,-3.890577852725982666e-01,9.545681953430175781e+00
1.998879194259643555e+00,7.117503881454467773e-02,-7.751047611236572266e-02,-3.710742294788360596e-01,1.254200458526611328e+00,3.875523805618286133e-02,4.452890753746032715e-01,-2.799263477325439453e+00,-4.044024739414453506e-03,1.232791066169738770e+00,1.192100644111633301e-01,-1.472699046134948730e-01,-5.937187671661376953e-01,1.209510803222656250e+00,2.712866663932800293e-02,7.916250228881835938e-01,-2.760987520217895508e+00,1.415408682078123093e-02,9.008857607841491699e-01,-1.324464529752731323e-01,-5.038180947303771973e-02,-1.731679737567901611e-01,1.274026751518249512e+00,2.325314283370971680e-02,4.205507934093475342e-01,-2.819025516510009766e+00,8.088049478828907013e-03,1.469866275787353516e+00,2.030839323997497559e-01,3.875523805618286133e-02,-4.947656393051147461e-02,1.299823164939880371e+00,1.162657141685485840e-02,3.710742294788360596e-01,-2.804034233093261719e+00,3.841823711991310120e-02,1.422451257705688477e+00,0.000000000000000000e+00,0.000000000000000000e+00,0.000000000000000000e+00,3.902548849582672119e-01,-3.435679376125335693e-01,9.645041465759277344e+00
2.016393661499023438e+00,7.081174850463867188e-02,-1.201412379741668701e-01,-3.710742294788360596e-01,1.254957437515258789e+00,1.162657141685485840e-02,5.442422032356262207e-01,-2.798963546752929688e+00,4.044024739414453506e-03,1.422451257705688477e+00,1.181503534317016602e-01,-1.085146665573120117e-01,-6.431953310966491699e-01,1.210631132125854492e+00,1.162657141685485840e-02,1.063746094703674316e+00,-2.760766506195068359e+00,4.246226325631141663e-02,1.043130874633789062e+00,-1.338997781276702881e-01,-1.201412379741668701e-01,-2.473828196525573730e-02,1.274541497230529785e+00,5.425733327865600586e-02,5.195039510726928711e-01,-2.818772792816162109e+00,1.819811202585697174e-02,1.659526467323303223e+00,2.031747698783874512e-01,7.751047611236572266e-03,-1.236914098262786865e-01,1.300277352333068848e+00,3.875523805618286133e-03,4.700273573398590088e-01,-2.803876399993896484e+00,4.852829873561859131e-02,1.659526467323303223e+00,0.000000000000000000e+00,0.000000000000000000e+00,0.000000000000000000e+00,4.812345504760742188e-01,-3.136404156684875488e-01,9.648633003234863281e+00
2.036234140396118164e+00,7.032728195190429688e-02,-8.138599991798400879e-02,-4.205507934093475342e-01,1.255653738975524902e+00,5.038180947303771973e-02,6.926718950271606445e-01,-2.798773765563964844e+00,-1.011006254702806473e-02,1.706941485404968262e+00,1.169998049736022949e-01,-8.526152372360229492e-02,-6.431953310966491699e-01,1.211660504341125488e+00,7.751047611236572266e-03,1.187437534332275391e+00,-2.760624170303344727e+00,4.448427259922027588e-02,1.232791066169738770e+00,-1.354742050170898438e-01,-6.975942850112915039e-02,-4.947656393051147461e-02,1.274935007095336914e+00,5.038180947303771973e-02,6.679335832595825195e-01,-2.818441152572631836e+00,6.066037341952323914e-03,1.849186539649963379e+00,2.032353281974792480e-01,2.712866663932800293e-02,-1.236914098262786865e-01,1.300640702247619629e+00,-1.162657141685485840e-02,5.442422032356262207e-01,-2.803750038146972656e+00,6.268239021301269531e-02,1.849186539649963379e+00,0.000000000000000000e+00,0.000000000000000000e+00,0.000000000000000000e+00,4.489128291606903076e-01,-3.363853394985198975e-01,9.612719535827636719e+00
2.068720340728759766e+00,6.938868761062622070e-02,-8.138599991798400879e-02,-4.452890753746032715e-01,1.256622672080993652e+00,3.875523805618286133e-02,8.411015868186950684e-01,-2.798410415649414062e+00,-1.415408682078123093e-02,1.801771521568298340e+00,1.144261956214904785e-01,-7.751047611236572266e-02,-6.926718950271606445e-01,1.213598251342773438e+00,1.937761902809143066e-02,1.360605478286743164e+00,-2.760403156280517578e+00,0.000000000000000000e+00,1.422451257705688477e+00,-1.387744545936584473e-01,-7.751047611236572266e-03,1.731679737567901611e-01,1.275691986083984375e+00,8.138599991798400879e-02,7.421484589576721191e-01,-2.817809104919433594e+00,0.000000000000000000e+00,2.228506803512573242e+00,2.032958865165710449e-01,0.000000000000000000e+00,-1.484296917915344238e-01,1.301397562026977539e+00,0.000000000000000000e+00,5.442422032356262207e-01,-2.803497314453125000e+00,0.000000000000000000e+00,1.991431713104248047e+00,0.000000000000000000e+00,0.000000000000000000e+00,0.000000000000000000e+00,4.153940081596374512e-01,-3.136404156684875488e-01,9.542090415954589844e+00
2.075377464294433594e+00,6.926757097244262695e-02,-5.425733327865600586e-02,-5.689804553985595703e-01,1.256713509559631348e+00,-1.937761902809143066e-02,7.916250228881835938e-01,-2.798378944396972656e+00,2.224213629961013794e-02,1.991431713104248047e+00,1.141536831855773926e-01,-8.526152372360229492e-02,-6.679335832595825195e-01,1.213779926300048828e+00,-5.038180947303771973e-02,1.410082101821899414e+00,-2.760387182235717773e+00,2.022012509405612946e-02,1.469866275787353516e+00,-1.393800079822540283e-01,-5.038180947303771973e-02,1.236914098262786865e-01,1.275813102722167969e+00,2.325314283370971680e-02,6.926718950271606445e-01,-2.817777633666992188e+00,1.011006254702806473e-02,2.275921821594238281e+00,2.033261656761169434e-01,3.100419044494628906e-02,-1.236914098262786865e-01,1.301518678665161133e+00,0.000000000000000000e+00,5.442422032356262207e-01,-2.803513050079345703e+00,-3.437421098351478577e-02,2.038846731185913086e+00,0.000000000000000000e+00,0.000000000000000000e+00,0.000000000000000000e+00,4.106055796146392822e-01,-2.873041927814483643e-01,9.670180320739746094e+00
2.096549272537231445e+00,6.854093074798583984e-02,-1.162657141685485840e-02,-5.195039510726928711e-01,1.257288813591003418e+00,4.263076186180114746e-02,9.895312786102294922e-01,-2.798031330108642578e+00,6.874842196702957153e-02,2.228506803512573242e+00,1.126398444175720215e-01,-1.705230474472045898e-01,-8.658398389816284180e-01,1.214748859405517578e+00,4.650628566741943359e-02,1.607988357543945312e+00,-2.760229349136352539e+00,3.033018670976161957e-02,1.659526467323303223e+00,-1.411663889884948730e-01,-6.975942850112915039e-02,1.484296917915344238e-01,1.276388406753540039e+00,8.526152372360229492e-02,8.658398389816284180e-01,-2.817461729049682617e+00,1.617609895765781403e-02,2.512997150421142578e+00,2.033867239952087402e-01,3.487971425056457520e-02,-1.236914098262786865e-01,1.302003145217895508e+00,3.487971425056457520e-02,5.937187671661376953e-01,-2.803181171417236328e+00,6.268239021301269531e-02,2.228506803512573242e+00,0.000000000000000000e+00,0.000000000000000000e+00,0.000000000000000000e+00,4.082113802433013916e-01,-4.046200811862945557e-01,9.498994827270507812e+00
2.136367797851562500e+00,6.732982397079467773e-02,-3.100419044494628906e-02,-6.431953310966491699e-01,1.258257627487182617e+00,8.913704752922058105e-02,1.088484406471252441e+00,-2.797636508941650391e+00,0.000000000000000000e+00,2.323337078094482422e+00,1.105204224586486816e-01,-4.263076186180114746e-02,-8.658398389816284180e-01,1.216171860694885254e+00,3.875523805618286133e-02,1.805894613265991211e+00,-2.760071277618408203e+00,4.650628566741943359e-02,1.849186539649963379e+00,-1.437096893787384033e-01,-3.487971425056457520e-02,4.947656393051147461e-02,1.277327060699462891e+00,1.162657141685485840e-02,8.658398389816284180e-01,-2.817082405090332031e+00,-1.617609895765781403e-02,2.797487497329711914e+00,2.034472823143005371e-01,0.000000000000000000e+00,-2.226445376873016357e-01,1.303032636642456055e+00,5.813286080956459045e-02,5.442422032356262207e-01,-2.802865266799926758e+00,0.000000000000000000e+00,2.512997150421142578e+00,0.000000000000000000e+00,0.000000000000000000e+00,0.000000000000000000e+00,4.189853072166442871e-01,-2.717418968677520752e-01,9.621099472045898438e+00
2.138297557830810547e+00,6.732982397079467773e-02,-3.100419044494628906e-02,-6.431953310966491699e-01,1.258257627487182617e+00,8.913704752922058105e-02,1.088484406471252441e+00,-2.797636508941650391e+00,0.000000000000000000e+00,2.323337078094482422e+00,1.105204224586486816e-01,-4.263076186180114746e-02,-8.658398389816284180e-01,1.216171860694885254e+00,3.875523805618286133e-02,1.805894613265991211e+00,-2.760071277618408203e+00,4.650628566741943359e-02,1.849186539649963379e+00,-1.437096893787384033e-01,-3.487971425056457520e-02,4.947656393051147461e-02,1.277327060699462891e+00,1.162657141685485840e-02,8.658398389816284180e-01,-2.817082405090332031e+00,-1.617609895765781403e-02,2.797487497329711914e+00,2.034472823143005371e-01,0.000000000000000000e+00,-2.226445376873016357e-01,1.303032636642456055e+00,5.813286080956459045e-02,5.442422032356262207e-01,-2.802865266799926758e+00,0.000000000000000000e+00,2.512997150421142578e+00,0.000000000000000000e+00,0.000000000000000000e+00,0.000000000000000000e+00,4.189853072166442871e-01,-2.717418968677520752e-01,9.621099472045898438e+00
2.156327962875366211e+00,6.648206710815429688e-02,-5.425733327865600586e-02,-6.926718950271606445e-01,1.259196281433105469e+00,7.363495230674743652e-02,1.212175846099853516e+00,-2.797273159027099609e+00,4.044024739414453506e-03,2.655242204666137695e+00,1.081587672233581543e-01,-1.472699046134948730e-01,-7.421484589576721191e-01,1.217685699462890625e+00,8.913704752922058105e-02,1.929585933685302734e+00,-2.759944915771484375e+00,1.819811202585697174e-02,1.991431713104248047e+00,-1.458896696567535400e-01,-9.301257133483886719e-02,0.000000000000000000e+00,1.277993083000183105e+00,9.688809514045715332e-02,1.113222718238830566e+00,-2.816782474517822266e+00,1.213207468390464783e-02,3.034562587738037109e+00,2.034472823143005371e-01,1.162657141685485840e-02,-7.421484589576721191e-02,1.304001450538635254e+00,2.712866663932800293e-02,6.431953310966491699e-01,-2.802628278732299805e+00,3.437421098351478577e-02,2.797487497329711914e+00,0.000000000000000000e+00,0.000000000000000000e+00,0.000000000000000000e+00,4.225766062736511230e-01,-3.854664862155914307e-01,9.504981040954589844e+00
2.176122665405273438e+00,6.557369232177734375e-02,-9.688809514045715332e-02,-7.421484589576721191e-01,1.259892702102661133e+00,6.200838088989257812e-02,1.385343790054321289e+00,-2.796909809112548828e+00,1.011006254702806473e-02,2.987147569656372070e+00,1.062815189361572266e-01,-1.472699046134948730e-01,-9.647929668426513672e-01,1.218745470046997070e+00,1.937761902809143066e-02,2.201707124710083008e+00,-2.759802818298339844e+00,1.617609895765781403e-02,2.228506803512573242e+00,-1.472521722316741943e-01,-1.007636189460754395e-01,0.000000000000000000e+00,1.278507828712463379e+00,9.301257133483886719e-02,1.162699222564697266e+00,-2.816055774688720703e+00,3.639622405171394348e-02,3.129392623901367188e+00,2.034472823143005371e-01,-2.325314283370971680e-02,-1.236914098262786865e-01,1.304607033729553223e+00,3.487971425056457520e-02,7.421484589576721191e-01,-2.802233457565307617e+00,2.830817364156246185e-02,2.987147569656372070e+00,0.000000000000000000e+00,0.000000000000000000e+00,0.000000000000000000e+00,3.375824391841888428e-01,-3.375824391841888428e-01,9.595960617065429688e+00
2.204827547073364258e+00,6.445342302322387695e-02,-1.123901903629302979e-01,-6.431953310966491699e-01,1.260589003562927246e+00,1.123901903629302979e-01,1.385343790054321289e+00,-2.796720266342163086e+00,8.088049478828907013e-03,2.987147569656372070e+00,1.041318178176879883e-01,-1.511454284191131592e-01,-8.658398389816284180e-01,1.219805121421813965e+00,3.487971425056457520e-02,2.226445436477661133e+00,-2.759692192077636719e+00,4.044024739414453506e-03,2.275921821594238281e+00,-1.485843807458877563e-01,-5.425733327865600586e-02,-2.473828196525573730e-02,1.278992295265197754e+00,7.363495230674743652e-02,1.360605478286743164e+00,-2.815518617630004883e+00,-1.617609895765781403e-02,3.461297988891601562e+00,2.034775614738464355e-01,3.487971425056457520e-02,-7.421484589576721191e-02,1.305061221122741699e+00,2.325314283370971680e-02,9.400547146797180176e-01,-2.801775455474853516e+00,2.830817364156246185e-02,3.081977605819702148e+00,0.000000000000000000e+00,0.000000000000000000e+00,0.000000000000000000e+00,4.692635238170623779e-01,-2.861070930957794189e-01,9.749189376831054688e+00
2.216287136077880859e+00,6.363594532012939453e-02,-7.751047611236572266e-03,-7.421484589576721191e-01,1.261103749275207520e+00,2.325314283370971680e-02,1.484296917915344238e+00,-2.796625375747680664e+00,-1.819811202585697174e-02,3.129392623901367188e+00,1.027996540069580078e-01,-6.975942850112915039e-02,-1.088484406471252441e+00,1.220864892005920410e+00,1.550209522247314453e-02,2.325398445129394531e+00,-2.759629011154174805e+00,1.819811202585697174e-02,2.465582132339477539e+00,-1.500377058982849121e-01,-1.937761902809143066e-02,2.473828196525573730e-02,1.279446363449096680e+00,2.325314283370971680e-02,1.311128973960876465e+00,-2.815329074859619141e+00,0.000000000000000000e+00,3.413882970809936523e+00,2.034472823143005371e-01,-3.875523805618286133e-03,-1.236914098262786865e-01,1.305454730987548828e+00,2.325314283370971680e-02,8.411015868186950684e-01,-2.801427841186523438e+00,8.088049478828907013e-03,3.224222660064697266e+00,0.000000000000000000e+00,0.000000000000000000e+00,0.000000000000000000e+00,4.860229492187500000e-01,-2.238578647375106812e-01,9.648633003234863281e+00
2.236902475357055664e+00,6.272763013839721680e-02,-1.240167617797851562e-01,-7.916250228881835938e-01,1.262012124061584473e+00,-3.875523805618286133e-03,1.583250045776367188e+00,-2.796341180801391602e+00,1.617609895765781403e-02,3.461297988891601562e+00,1.010738015174865723e-01,-1.395188570022583008e-01,-9.895312786102294922e-01,1.222287893295288086e+00,5.425733327865600586e-02,2.424351692199707031e+00,-2.759439468383789062e+00,1.011006254702806473e-02,2.607827186584472656e+00,-1.511579751968383789e-01,2.712866663932800293e-02,-4.947656393051147461e-02,1.279991388320922852e+00,3.875523805618286133e-03,1.360605478286743164e+00,-2.815028905868530273e+00,-2.830817364156246185e-02,3.840618371963500977e+00,2.034170031547546387e-01,2.712866663932800293e-02,-1.236914098262786865e-01,1.306030035018920898e+00,3.487971425056457520e-02,8.658398389816284180e-01,-2.801017045974731445e+00,6.066037341952323914e-02,3.461297988891601562e+00,0.000000000000000000e+00,0.000000000000000000e+00,0.000000000000000000e+00,4.596867263317108154e-01,-2.418143749237060547e-01,9.521739959716796875e+00
2.255580425262451172e+00,6.227344274520874023e-02,-1.007636189460754395e-01,-7.421484589576721191e-01,1.262466192245483398e+00,9.301257133483886719e-02,1.682203173637390137e+00,-2.796262264251708984e+00,-1.415408682078123093e-02,3.461297988891601562e+00,1.001957654953002930e-01,-1.278922855854034424e-01,-1.113222718238830566e+00,1.222772359848022461e+00,-3.100419044494628906e-02,2.523304700851440430e+00,-2.759376287460327148e+00,2.022012509405612946e-02,2.607827186584472656e+00,-1.515818536281585693e-01,0.000000000000000000e+00,-1.484296917915344238e-01,1.280415296554565430e+00,7.751047611236572266e-02,1.311128973960876465e+00,-2.814918279647827148e+00,-2.022012509405612946e-02,3.888033390045166016e+00,2.033867239952087402e-01,-1.162657141685485840e-02,-1.236914098262786865e-01,1.306453943252563477e+00,7.751047611236572266e-02,8.658398389816284180e-01,-2.800922393798828125e+00,1.011006254702806473e-02,3.603543043136596680e+00,0.000000000000000000e+00,0.000000000000000000e+00,0.000000000000000000e+00,5.231330990791320801e-01,-1.651999205350875854e-01,9.555258750915527344e+00
2.280625104904174805e+00,6.006318330764770508e-02,-1.317678093910217285e-01,-6.926718950271606445e-01,1.264706730842590332e+00,7.751047611236572266e-02,1.509035229682922363e+00,-2.795725107192993164e+00,0.000000000000000000e+00,3.793203353881835938e+00,9.683495759963989258e-02,-8.138599991798400879e-02,-1.039007902145385742e+00,1.225467085838317871e+00,8.138599991798400879e-02,2.548043012619018555e+00,-2.759012937545776367e+00,4.044024739414453506e-03,2.892317533493041992e+00,-1.536407172679901123e-01,-4.263076186180114746e-02,-4.947656393051147461e-02,1.282141089439392090e+00,3.487971425056457520e-02,1.410082101821899414e+00,-2.814286470413208008e+00,1.617609895765781403e-02,4.219938755035400391e+00,2.033261656761169434e-01,3.487971425056457520e-02,-7.421484589576721191e-02,1.307998180389404297e+00,-4.263076186180114746e-02,7.916250228881835938e-01,-2.800574779510498047e+00,3.033018670976161957e-02,4.030278205871582031e+00,0.000000000000000000e+00,0.000000000000000000e+00,0.000000000000000000e+00,5.734112858772277832e-01,-2.741360962390899658e-01,9.591172218322753906e+00
2.296287298202514648e+00,5.918514728546142578e-02,-9.688809514045715332e-02,-7.668867111206054688e-01,1.265463709831237793e+00,6.975942850112915039e-02,1.781156301498413086e+00,-2.795598745346069336e+00,4.044024739414453506e-03,3.840618371963500977e+00,9.577524662017822266e-02,-7.751047611236572266e-02,-1.311128973960876465e+00,1.226496458053588867e+00,1.317678093910217285e-01,2.721210956573486328e+00,-2.758902311325073242e+00,5.055030807852745056e-02,2.892317533493041992e+00,-1.544279456138610840e-01,-6.588390469551086426e-02,-1.484296917915344238e-01,1.282898068428039551e+00,8.913704752922058105e-02,1.311128973960876465e+00,-2.814033746719360352e+00,-4.246226325631141663e-02,4.314768791198730469e+00,2.032050490379333496e-01,1.550209522247314453e-02,-2.473828196525573730e-02,1.308573365211486816e+00,-1.550209522247314453e-02,9.647929668426513672e-01,-2.800511598587036133e+00,1.617609895765781403e-02,4.125108718872070312e+00,0.000000000000000000e+00,0.000000000000000000e+00,0.000000000000000000e+00,6.117185354232788086e-01,-1.927332431077957153e-01,9.617507934570312500e+00
2.317259550094604492e+00,5.742907524108886719e-02,-1.240167617797851562e-01,-6.679335832595825195e-01,1.267219781875610352e+00,1.162657216191291809e-01,1.509035229682922363e+00,-2.795140504837036133e+00,2.224213629961013794e-02,3.982863426208496094e+00,9.380722045898437500e-02,-8.913704752922058105e-02,-1.385343790054321289e+00,1.228343486785888672e+00,6.975942850112915039e-02,2.721210956573486328e+00,-2.758633852005004883e+00,2.022012369707226753e-03,3.081977605819702148e+00,-1.557298749685287476e-01,-7.751047611236572266e-02,-2.226445376873016357e-01,1.284654140472412109e+00,1.433943808078765869e-01,1.113222718238830566e+00,-2.813449144363403320e+00,-1.415408682078123093e-02,4.504428863525390625e+00,2.029325366020202637e-01,6.200838088989257812e-02,-4.947656393051147461e-02,1.309754252433776855e+00,7.751047611236572266e-02,8.411015868186950684e-01,-2.800195693969726562e+00,5.863836035132408142e-02,4.267353534698486328e+00,0.000000000000000000e+00,0.000000000000000000e+00,0.000000000000000000e+00,4.608838260173797607e-01,-2.669534981250762939e-01,9.567230224609375000e+00
2.338079690933227539e+00,5.727767944335937500e-02,-1.201412379741668701e-01,-5.689804553985595703e-01,1.267522573471069336e+00,1.046391502022743225e-01,1.583250045776367188e+00,-2.795109033584594727e+00,1.617609895765781403e-02,4.077693462371826172e+00,9.362554550170898438e-02,-1.317678093910217285e-01,-1.286390662193298340e+00,1.228676438331604004e+00,3.487971425056457520e-02,2.548043012619018555e+00,-2.758602142333984375e+00,3.235219791531562805e-02,3.081977605819702148e+00,-1.558206975460052490e-01,-5.038180947303771973e-02,-1.484296917915344238e-01,1.284775257110595703e+00,1.317678093910217285e-01,1.113222718238830566e+00,-2.813401699066162109e+00,1.213207468390464783e-02,4.599258899688720703e+00,2.028719782829284668e-01,7.751047611236572266e-03,-4.947656393051147461e-02,1.309784412384033203e+00,-3.100419044494628906e-02,8.411015868186950684e-01,-2.800195693969726562e+00,3.235219791531562805e-02,4.267353534698486328e+00,0.000000000000000000e+00,0.000000000000000000e+00,0.000000000000000000e+00,4.608838260173797607e-01,-2.669534981250762939e-01,9.567230224609375000e+00
2.356801271438598633e+00,5.446189641952514648e-02,-1.240167617797851562e-01,-6.679335832595825195e-01,1.270853161811828613e+00,5.038180947303771973e-02,1.410082101821899414e+00,-2.794571876525878906e+00,-4.044024739414453506e-03,4.409598827362060547e+00,9.068864583969116211e-02,-1.085146665573120117e-01,-1.509035229682922363e+00,1.231825351715087891e+00,5.425733327865600586e-02,2.745949268341064453e+00,-2.758444309234619141e+00,1.617609895765781403e-02,3.413882970809936523e+00,-1.579098552465438843e-01,-7.751047611236572266e-03,-7.421484589576721191e-02,1.287803053855895996e+00,9.301257133483886719e-02,1.162699222564697266e+00,-2.812911987304687500e+00,2.426414936780929565e-02,4.978579044342041016e+00,2.024481296539306641e-01,-3.875523805618286133e-03,-7.421484589576721191e-02,1.312388420104980469e+00,3.100419044494628906e-02,7.668867111206054688e-01,-2.799800634384155273e+00,3.437421098351478577e-02,4.599258899688720703e+00,0.000000000000000000e+00,0.000000000000000000e+00,0.000000000000000000e+00,5.386953949928283691e-01,-1.221042871475219727e-01,9.545681953430175781e+00
2.376357793807983398e+00,5.216079950332641602e-02,-6.975942850112915039e-02,-4.700273573398590088e-01,1.273547768592834473e+00,1.317678093910217285e-01,1.607988357543945312e+00,-2.794239997863769531e+00,-1.415408682078123093e-02,4.599258899688720703e+00,8.838754892349243164e-02,-1.782740950584411621e-01,-1.286390662193298340e+00,1.234429240226745605e+00,4.650628566741943359e-02,2.869640827178955078e+00,-2.758301973342895508e+00,0.000000000000000000e+00,3.508713006973266602e+00,-1.596356779336929321e-01,-5.813286080956459045e-02,-1.236914098262786865e-01,1.290528059005737305e+00,7.363495230674743652e-02,1.088484406471252441e+00,-2.812343358993530273e+00,1.011006254702806473e-02,4.978579044342041016e+00,2.021453380584716797e-01,4.263076186180114746e-02,-2.473828196525573730e-02,1.314114212989807129e+00,5.425733327865600586e-02,7.916250228881835938e-01,-2.799326896667480469e+00,3.841823711991310120e-02,4.694088935852050781e+00,0.000000000000000000e+00,0.000000000000000000e+00,0.000000000000000000e+00,4.836287498474121094e-01,-2.621650993824005127e-01,9.732429504394531250e+00
2.395499467849731445e+00,5.119186639785766602e-02,-1.007636189460754395e-01,-5.442422032356262207e-01,1.274456143379211426e+00,1.472699046134948730e-01,1.459558606147766113e+00,-2.794018983840942383e+00,1.011006254702806473e-02,4.504428863525390625e+00,8.729755878448486328e-02,-1.550209522247314453e-01,-1.385343790054321289e+00,1.235458612442016602e+00,7.751047611236572266e-02,2.844902515411376953e+00,-2.758301973342895508e+00,-3.639622405171394348e-02,3.508713006973266602e+00,-1.604228913784027100e-01,-3.875523805618286133e-02,-7.421484589576721191e-02,1.291406035423278809e+00,2.712866663932800293e-02,1.088484406471252441e+00,-2.812027454376220703e+00,-1.213207468390464783e-02,5.120824337005615234e+00,2.019636631011962891e-01,3.100419044494628906e-02,-4.947656393051147461e-02,1.314810514450073242e+00,3.875523805618286133e-02,6.431953310966491699e-01,-2.799200534820556641e+00,6.066037341952323914e-03,4.788918972015380859e+00,0.000000000000000000e+00,0.000000000000000000e+00,0.000000000000000000e+00,5.315127968788146973e-01,-1.580173075199127197e-01,9.630676269531250000e+00
2.420610904693603516e+00,4.737693071365356445e-02,-1.550209522247314453e-01,-3.215976655483245850e-01,1.278543591499328613e+00,1.085146665573120117e-01,1.360605478286743164e+00,-2.793244838714599609e+00,2.022012369707226753e-03,4.788918972015380859e+00,8.336144685745239258e-02,-1.472699046134948730e-01,-1.385343790054321289e+00,1.239455223083496094e+00,6.975942850112915039e-02,2.770687580108642578e+00,-2.758175611495971680e+00,-8.088049478828907013e-03,3.840618371963500977e+00,-1.639653593301773071e-01,-1.085146665573120117e-01,2.226445376873016357e-01,1.296038508415222168e+00,2.015272378921508789e-01,6.431953310966491699e-01,-2.811142921447753906e+00,2.426414936780929565e-02,5.500144481658935547e+00,2.012673020362854004e-01,-5.425733327865600586e-02,0.000000000000000000e+00,1.317596077919006348e+00,4.263076186180114746e-02,6.679335832595825195e-01,-2.798837184906005859e+00,-2.628616243600845337e-02,5.120824337005615234e+00,0.000000000000000000e+00,0.000000000000000000e+00,0.000000000000000000e+00,5.925649404525756836e-01,7.302315533161163330e-02,9.435548782348632812e+00
2.437635183334350586e+00,4.559057950973510742e-02,-1.743985712528228760e-01,-3.215976655483245850e-01,1.280814409255981445e+00,2.170293331146240234e-01,1.410082101821899414e+00,-2.793023824691772461e+00,1.415408682078123093e-02,5.025994300842285156e+00,8.151453733444213867e-02,-1.976517289876937866e-01,-1.261652350425720215e+00,1.241726160049438477e+00,7.363495230674743652e-02,2.919117212295532227e+00,-2.758144140243530273e+00,1.819811202585697174e-02,3.888033390045166016e+00,-1.661756187677383423e-01,-1.240167617797851562e-01,2.721211016178131104e-01,1.298521280288696289e+00,2.402824759483337402e-01,7.916250228881835938e-01,-2.810984849929809570e+00,-1.415408682078123093e-02,5.642389774322509766e+00,2.009947896003723145e-01,5.425733327865600586e-02,0.000000000000000000e+00,1.319200754165649414e+00,6.975942850112915039e-02,5.195039510726928711e-01,-2.798710823059082031e+00,3.841823711991310120e-02,5.405314445495605469e+00,0.000000000000000000e+00,0.000000000000000000e+00,0.000000000000000000e+00,3.112462162971496582e-01,-2.621650993824005127e-01,9.880870819091796875e+00
2.456287145614624023e+00,4.359221458435058594e-02,-1.278922855854034424e-01,-3.710742294788360596e-01,1.282812714576721191e+00,9.688809514045715332e-02,1.385343790054321289e+00,-2.792597293853759766e+00,2.628616243600845337e-02,5.073409557342529297e+00,7.906204462051391602e-02,-1.356433331966400146e-01,-1.113222718238830566e+00,1.243784904479980469e+00,7.751047611236572266e-03,2.968593835830688477e+00,-2.758128404617309570e+00,-1.011006254702806473e-02,4.030278205871582031e+00,-1.679619997739791870e-01,-6.200838088989257812e-02,1.236914098262786865e-01,1.300852656364440918e+00,2.170293331146240234e-01,6.926718950271606445e-01,-2.810637474060058594e+00,1.213207468390464783e-02,5.879465103149414062e+00,2.004195451736450195e-01,-3.100419044494628906e-02,1.484296917915344238e-01,1.320775270462036133e+00,3.487971425056457520e-02,6.679335832595825195e-01,-2.798537015914916992e+00,6.066037341952323914e-03,5.452729701995849609e+00,0.000000000000000000e+00,0.000000000000000000e+00,0.000000000000000000e+00,3.699041604995727539e-01,-5.015852451324462891e-01,9.657012939453125000e+00
2.483183860778808594e+00,4.359221458435058594e-02,-1.278922855854034424e-01,-3.710742294788360596e-01,1.282812714576721191e+00,9.688809514045715332e-02,1.385343790054321289e+00,-2.792597293853759766e+00,2.628616243600845337e-02,5.073409557342529297e+00,7.906204462051391602e-02,-1.356433331966400146e-01,-1.113222718238830566e+00,1.243784904479980469e+00,7.751047611236572266e-03,2.968593835830688477e+00,-2.758128404617309570e+00,-1.011006254702806473e-02,4.030278205871582031e+00,-1.679619997739791870e-01,-6.200838088989257812e-02,1.236914098262786865e-01,1.300852656364440918e+00,2.170293331146240234e-01,6.926718950271606445e-01,-2.810637474060058594e+00,1.213207468390464783e-02,5.879465103149414062e+00,2.004195451736450195e-01,-3.100419044494628906e-02,1.484296917915344238e-01,1.320775270462036133e+00,3.487971425056457520e-02,6.679335832595825195e-01,-2.798537015914916992e+00,6.066037341952323914e-03,5.452729701995849609e+00,0.000000000000000000e+00,0.000000000000000000e+00,0.000000000000000000e+00,3.699041604995727539e-01,-5.015852451324462891e-01,9.657012939453125000e+00
2.497901201248168945e+00,3.929281234741210938e-02,-5.425733327865600586e-02,-1.484296917915344238e-01,1.288111329078674316e+00,1.705230474472045898e-01,1.261652350425720215e+00,-2.792249679565429688e+00,1.415408682078123093e-02,5.594974994659423828e+00,7.452040910720825195e-02,-1.201412379741668701e-01,-1.360605478286743164e+00,1.248841285705566406e+00,6.200838088989257812e-02,3.067546844482421875e+00,-2.758049249649047852e+00,-2.022012509405612946e-02,4.409598827362060547e+00,-1.724127978086471558e-01,-1.007636189460754395e-01,3.463359475135803223e-01,1.306635618209838867e+00,1.433943808078765869e-01,6.926718950271606445e-01,-2.809673786163330078e+00,6.066037341952323914e-02,6.116540431976318359e+00,1.992387175559997559e-01,2.712866663932800293e-02,1.484296917915344238e-01,1.324317693710327148e+00,6.975942850112915039e-02,5.689804553985595703e-01,-2.798205137252807617e+00,-4.044024739414453506e-03,5.784635066986083984e+00,0.000000000000000000e+00,0.000000000000000000e+00,0.000000000000000000e+00,3.387795388698577881e-01,-2.238578647375106812e-01,9.884461402893066406e+00
2.517080307006835938e+00,3.726422786712646484e-02,-9.688809514045715332e-02,-2.473828196525573730e-02,1.289837121963500977e+00,1.085146665573120117e-01,1.360605478286743164e+00,-2.791996955871582031e+00,2.022012509405612946e-02,5.642389774322509766e+00,7.297629117965698242e-02,-1.666475236415863037e-01,-1.558511734008789062e+00,1.250415802001953125e+00,4.650628566741943359e-02,3.364406347274780273e+00,-2.757986068725585938e+00,8.088049478828907013e-03,4.457013607025146484e+00,-1.741083413362503052e-01,-1.317678093910217285e-01,2.721211016178131104e-01,1.308422088623046875e+00,2.054027616977691650e-01,6.926718950271606445e-01,-2.809341907501220703e+00,-2.022012369707226753e-03,6.401030540466308594e+00,1.989359259605407715e-01,1.550209522247314453e-02,1.731679737567901611e-01,1.325195789337158203e+00,5.425733327865600586e-02,6.431953310966491699e-01,-2.798031330108642578e+00,4.044025018811225891e-02,6.021709918975830078e+00,0.000000000000000000e+00,0.000000000000000000e+00,0.000000000000000000e+00,5.159504413604736328e-01,-9.576806426048278809e-02,9.488221168518066406e+00
2.535569190979003906e+00,3.584116697311401367e-02,-1.666475236415863037e-01,-1.731679737567901611e-01,1.291320681571960449e+00,1.860251426696777344e-01,1.212175846099853516e+00,-2.791775703430175781e+00,0.000000000000000000e+00,5.879465103149414062e+00,7.164406776428222656e-02,-7.751047611236572266e-02,-1.360605478286743164e+00,1.251536011695861816e+00,3.100419044494628906e-02,3.290191411972045898e+00,-2.757954597473144531e+00,2.022012369707226753e-03,4.504428863525390625e+00,-1.752588748931884766e-01,-1.085146665573120117e-01,3.710742294788360596e-01,1.309845089912414551e+00,1.046391502022743225e-01,7.668867111206054688e-01,-2.809089183807373047e+00,1.011006254702806473e-02,6.448445320129394531e+00,1.987239718437194824e-01,3.100419044494628906e-02,1.484296917915344238e-01,1.326013207435607910e+00,6.588390469551086426e-02,6.431953310966491699e-01,-2.797826051712036133e+00,3.235219791531562805e-02,6.069125175476074219e+00,0.000000000000000000e+00,0.000000000000000000e+00,0.000000000000000000e+00,6.224924325942993164e-01,2.274491637945175171e-02,9.521739959716796875e+00
2.559448719024658203e+00,3.269231319427490234e-02,-1.123901903629302979e-01,0.000000000000000000e+00,1.294711828231811523e+00,2.247803807258605957e-01,1.410082101821899414e+00,-2.791222810745239258e+00,3.235219791531562805e-02,5.974295139312744141e+00,6.879794597625732422e-02,-8.526152372360229492e-02,-1.484296917915344238e+00,1.254503250122070312e+00,6.975942850112915039e-02,3.339668035507202148e+00,-2.757859706878662109e+00,1.819811202585697174e-02,4.694088935852050781e+00,-1.782563626766204834e-01,-8.526152372360229492e-02,3.215976655483245850e-01,1.313357234001159668e+00,1.821496188640594482e-01,5.195039510726928711e-01,-2.808662891387939453e+00,2.830817364156246185e-02,6.780350685119628906e+00,1.981487274169921875e-01,-1.162657141685485840e-02,2.721211016178131104e-01,1.328162908554077148e+00,4.650628566741943359e-02,5.937187671661376953e-01,-2.797352313995361328e+00,5.863836035132408142e-02,6.306200504302978516e+00,0.000000000000000000e+00,0.000000000000000000e+00,0.000000000000000000e+00,4.716577231884002686e-01,-4.908113554120063782e-02,9.734824180603027344e+00
2.576385736465454102e+00,2.996736764907836914e-02,-1.627719998359680176e-01,1.731679737567901611e-01,1.297648668289184570e+00,1.433943808078765869e-01,1.212175846099853516e+00,-2.790701627731323242e+00,2.830817364156246185e-02,6.116540431976318359e+00,6.686019897460937500e-02,-1.317678093910217285e-01,-1.731679677963256836e+00,1.256864786148071289e+00,8.138599991798400879e-02,3.389144659042358398e+00,-2.757843971252441406e+00,2.022012369707226753e-03,4.883749008178710938e+00,-1.798610687255859375e-01,-2.712866663932800293e-02,2.473828196525573730e-01,1.315840005874633789e+00,1.433943808078765869e-01,6.431953310966491699e-01,-2.808299541473388672e+00,4.852829873561859131e-02,6.970010757446289062e+00,1.974825859069824219e-01,-3.875523805618286133e-02,3.215976655483245850e-01,1.329616308212280273e+00,6.200838088989257812e-02,5.442422032356262207e-01,-2.797020435333251953e+00,2.830817364156246185e-02,6.495860576629638672e+00,0.000000000000000000e+00,0.000000000000000000e+00,0.000000000000000000e+00,5.255272984504699707e-01,-7.661445438861846924e-02,9.667786598205566406e+00
2.596593856811523438e+00,2.712124586105346680e-02,-1.782740950584411621e-01,7.421484589576721191e-02,1.300615906715393066e+00,1.860251426696777344e-01,1.162699222564697266e+00,-2.790164470672607422e+00,4.044024739414453506e-03,6.258785247802734375e+00,6.480133533477783203e-02,-1.007636189460754395e-01,-1.484296917915344238e+00,1.258863210678100586e+00,5.425733327865600586e-02,3.537574291229248047e+00,-2.757812261581420898e+00,1.617609895765781403e-02,5.025994300842285156e+00,-1.816777139902114868e-01,-7.363495230674743652e-02,3.710742294788360596e-01,1.318262219429016113e+00,8.138599991798400879e-02,4.700273573398590088e-01,-2.807699203491210938e+00,3.841823711991310120e-02,7.207086086273193359e+00,1.966953873634338379e-01,5.038180947303771973e-02,3.710742294788360596e-01,1.331311821937561035e+00,6.975942850112915039e-02,4.205507934093475342e-01,-2.796767711639404297e+00,1.011006254702806473e-02,6.780350685119628906e+00,0.000000000000000000e+00,0.000000000000000000e+00,0.000000000000000000e+00,5.147533416748046875e-01,-1.364694982767105103e-01,9.525331497192382812e+00
2.623954534530639648e+00,2.551656961441040039e-02,-1.743985712528228760e-01,2.473828196525573730e-01,1.302614212036132812e+00,2.325314432382583618e-01,1.162699222564697266e+00,-2.789911746978759766e+00,2.022012369707226753e-03,6.495860576629638672e+00,6.368106603622436523e-02,-1.627719998359680176e-01,-1.706941485404968262e+00,1.260377049446105957e+00,4.650628566741943359e-02,3.537574291229248047e+00,-2.757796525955200195e+00,3.437421098351478577e-02,5.120824337005615234e+00,-1.828282624483108521e-01,-9.301257133483886719e-02,2.721211016178131104e-01,1.320078849792480469e+00,1.860251426696777344e-01,4.205507934093475342e-01,-2.807462215423583984e+00,2.830817364156246185e-02,7.301916122436523438e+00,1.961807012557983398e-01,-3.875523805618286133e-02,3.463359475135803223e-01,1.332401752471923828e+00,0.000000000000000000e+00,5.195039510726928711e-01,-2.796641349792480469e+00,2.628616243600845337e-02,6.970010757446289062e+00,0.000000000000000000e+00,0.000000000000000000e+00,0.000000000000000000e+00,3.734954595565795898e-01,-1.520318090915679932e-01,9.628282546997070312e+00
2.649945259094238281e+00,2.294296026229858398e-02,-7.751047611236572266e-02,1.236914098262786865e-01,1.305763125419616699e+00,1.085146665573120117e-01,1.286390662193298340e+00,-2.789169311523437500e+00,3.033018670976161957e-02,6.448445320129394531e+00,6.162220239639282227e-02,-1.317678093910217285e-01,-1.731679677963256836e+00,1.262950658798217773e+00,1.588964760303497314e-01,3.636527538299560547e+00,-2.757828235626220703e+00,2.022012369707226753e-03,5.263069629669189453e+00,-1.847357451915740967e-01,-9.301257133483886719e-02,3.463359475135803223e-01,1.322803854942321777e+00,5.425733327865600586e-02,5.442422032356262207e-01,-2.807130336761474609e+00,-2.628616243600845337e-02,7.396746158599853516e+00,1.956053972244262695e-01,5.813286080956459045e-02,3.463359475135803223e-01,1.334188222885131836e+00,3.487971425056457520e-02,4.700273573398590088e-01,-2.796467542648315430e+00,-1.011006254702806473e-02,7.064840793609619141e+00,0.000000000000000000e+00,0.000000000000000000e+00,0.000000000000000000e+00,3.531447649002075195e-01,-1.711854189634323120e-01,9.670180320739746094e+00
2.662131309509277344e+00,2.294296026229858398e-02,-7.751047611236572266e-02,1.236914098262786865e-01,1.305763125419616699e+00,1.085146665573120117e-01,1.286390662193298340e+00,-2.789169311523437500e+00,3.033018670976161957e-02,6.448445320129394531e+00,6.162220239639282227e-02,-1.317678093910217285e-01,-1.731679677963256836e+00,1.262950658798217773e+00,1.588964760303497314e-01,3.636527538299560547e+00,-2.757828235626220703e+00,2.022012369707226753e-03,5.263069629669189453e+00,-1.847357451915740967e-01,-9.301257133483886719e-02,3.463359475135803223e-01,1.322803854942321777e+00,5.425733327865600586e-02,5.442422032356262207e-01,-2.807130336761474609e+00,-2.628616243600845337e-02,7.396746158599853516e+00,1.956053972244262695e-01,5.813286080956459045e-02,3.463359475135803223e-01,1.334188222885131836e+00,3.487971425056457520e-02,4.700273573398590088e-01,-2.796467542648315430e+00,-1.011006254702806473e-02,7.064840793609619141e+00,0.000000000000000000e+00,0.000000000000000000e+00,0.000000000000000000e+00,3.531447649002075195e-01,-1.711854189634323120e-01,9.670180320739746094e+00
2.675769090652465820e+00,2.024823427200317383e-02,-1.937761902809143066e-01,-2.473828196525573730e-02,1.309184432029724121e+00,1.860251426696777344e-01,1.385343790054321289e+00,-2.788426876068115234e+00,-1.415408682078123093e-02,6.780350685119628906e+00,5.904859304428100586e-02,-9.688809514045715332e-02,-1.880109429359436035e+00,1.266129732131958008e+00,1.007636189460754395e-01,3.636527538299560547e+00,-2.757765054702758789e+00,-4.044024739414453506e-03,5.405314445495605469e+00,-1.870671212673187256e-01,-5.813286080956459045e-02,3.463359475135803223e-01,1.325892210006713867e+00,6.200838088989257812e-02,5.195039510726928711e-01,-2.806846141815185547e+00,-2.224213629961013794e-02,7.870896816253662109e+00,1.952420473098754883e-01,3.100419044494628906e-02,3.215976655483245850e-01,1.336428642272949219e+00,3.100419044494628906e-02,4.700273573398590088e-01,-2.796199083328247070e+00,2.830817364156246185e-02,7.254501342773437500e+00,0.000000000000000000e+00,0.000000000000000000e+00,0.000000000000000000e+00,4.345476031303405762e-01,3.471592441201210022e-02,9.645041465759277344e+00
2.696695327758789062e+00,1.873439550399780273e-02,-4.263076186180114746e-02,0.000000000000000000e+00,1.311515808105468750e+00,8.526152372360229492e-02,1.410082101821899414e+00,-2.787842273712158203e+00,4.448427259922027588e-02,7.112256050109863281e+00,5.686861276626586914e-02,-1.627719998359680176e-01,-1.781156301498413086e+00,1.268885016441345215e+00,1.278922855854034424e-01,3.661265850067138672e+00,-2.757685899734497070e+00,-6.066037341952323914e-03,5.642389774322509766e+00,-1.894893199205398560e-01,-1.317678093910217285e-01,5.195039510726928711e-01,1.328102469444274902e+00,9.688809514045715332e-02,5.937187671661376953e-01,-2.806372165679931641e+00,-2.022012509405612946e-02,8.107972145080566406e+00,1.949998736381530762e-01,-5.813286080956459045e-02,4.205507934093475342e-01,1.338396787643432617e+00,7.751047611236572266e-02,3.463359475135803223e-01,-2.795851469039916992e+00,3.033018670976161957e-02,7.681236743927001953e+00,0.000000000000000000e+00,0.000000000000000000e+00,0.000000000000000000e+00,5.734112858772277832e-01,1.197100849822163582e-03,9.634267807006835938e+00
2.716964483261108398e+00,1.661497354507446289e-02,-1.317678093910217285e-01,0.000000000000000000e+00,1.314119696617126465e+00,1.550209522247314453e-01,1.261652350425720215e+00,-2.786736488342285156e+00,2.022012369707226753e-03,7.207086086273193359e+00,5.450695753097534180e-02,-1.162657216191291809e-01,-1.805894613265991211e+00,1.272185325622558594e+00,6.975942850112915039e-02,3.661265850067138672e+00,-2.757591247558593750e+00,1.415408682078123093e-02,5.784635066986083984e+00,-1.923354119062423706e-01,-3.100419044494628906e-02,7.421484589576721191e-01,1.330797076225280762e+00,9.301257133483886719e-02,5.442422032356262207e-01,-2.805724620819091797e+00,-1.213207468390464783e-02,8.297632217407226562e+00,1.946970820426940918e-01,-4.650628566741943359e-02,3.463359475135803223e-01,1.340909719467163086e+00,8.138599991798400879e-02,3.463359475135803223e-01,-2.795409202575683594e+00,3.235219791531562805e-02,7.776066780090332031e+00,0.000000000000000000e+00,0.000000000000000000e+00,0.000000000000000000e+00,5.015852451324462891e-01,2.513911761343479156e-02,9.667786598205566406e+00
2.736204624176025391e+00,1.534330844879150391e-02,-6.975942850112915039e-02,2.473828196525573730e-02,1.316572189331054688e+00,1.782740950584411621e-01,1.286390662193298340e+00,-2.785994052886962891e+00,2.224213629961013794e-02,7.396746158599853516e+00,5.214530229568481445e-02,-1.705230474472045898e-01,-1.682203173637390137e+00,1.274970769882202148e+00,1.976517289876937866e-01,3.686003923416137695e+00,-2.757543802261352539e+00,-2.022012369707226753e-03,6.021709918975830078e+00,-1.946970522403717041e-01,-1.162657216191291809e-01,5.937187671661376953e-01,1.333067893981933594e+00,1.240167617797851562e-01,4.452890753746032715e-01,-2.805361270904541016e+00,2.426414936780929565e-02,8.487292289733886719e+00,1.945759654045104980e-01,-2.712866663932800293e-02,3.463359475135803223e-01,1.342998981475830078e+00,1.162657216191291809e-01,1.484296917915344238e-01,-2.795140743255615234e+00,3.033018670976161957e-02,7.965726852416992188e+00,0.000000000000000000e+00,0.000000000000000000e+00,0.000000000000000000e+00,5.135562419891357422e-01,-8.020575344562530518e-02,9.682151794433593750e+00
2.755544900894165039e+00,1.534330844879150391e-02,-6.975942850112915039e-02,2.473828196525573730e-02,1.316572189331054688e+00,1.782740950584411621e-01,1.286390662193298340e+00,-2.785994052886962891e+00,2.224213629961013794e-02,7.396746158599853516e+00,5.214530229568481445e-02,-1.705230474472045898e-01,-1.682203173637390137e+00,1.274970769882202148e+00,1.976517289876937866e-01,3.686003923416137695e+00,-2.757543802261352539e+00,-2.022012369707226753e-03,6.021709918975830078e+00,-1.946970522403717041e-01,-1.162657216191291809e-01,5.937187671661376953e-01,1.333067893981933594e+00,1.240167617797851562e-01,4.452890753746032715e-01,-2.805361270904541016e+00,2.426414936780929565e-02,8.487292289733886719e+00,1.945759654045104980e-01,-2.712866663932800293e-02,3.463359475135803223e-01,1.342998981475830078e+00,1.162657216191291809e-01,1.484296917915344238e-01,-2.795140743255615234e+00,3.033018670976161957e-02,7.965726852416992188e+00,0.000000000000000000e+00,0.000000000000000000e+00,0.000000000000000000e+00,5.135562419891357422e-01,-8.020575344562530518e-02,9.682151794433593750e+00
2.776408195495605469e+00,1.167970895767211914e-02,-1.201412379741668701e-01,7.421484589576721191e-02,1.321568012237548828e+00,6.975942850112915039e-02,1.187437534332275391e+00,-2.784193277359008789e+00,4.246226325631141663e-02,7.586406707763671875e+00,4.742205142974853516e-02,-1.123901903629302979e-01,-1.830632925033569336e+00,1.280541896820068359e+00,2.170293331146240234e-01,3.636527538299560547e+00,-2.757433176040649414e+00,-1.213207468390464783e-02,6.306200504302978516e+00,-1.988450735807418823e-01,-2.712866663932800293e-02,5.442422032356262207e-01,1.337609529495239258e+00,1.278922855854034424e-01,3.463359475135803223e-01,-2.804871559143066406e+00,1.415408682078123093e-02,8.866612434387207031e+00,1.939401626586914062e-01,6.588390469551086426e-02,4.205507934093475342e-01,1.347116708755493164e+00,6.975942850112915039e-02,0.000000000000000000e+00,-2.794713973999023438e+00,1.011006254702806473e-02,8.487292289733886719e+00,0.000000000000000000e+00,0.000000000000000000e+00,0.000000000000000000e+00,5.351040959358215332e-01,-8.978256583213806152e-02,9.531316757202148438e+00
2.797544002532958984e+00,9.378612041473388672e-03,-9.688809514045715332e-02,3.215976655483245850e-01,1.324747085571289062e+00,1.705230474472045898e-01,1.063746094703674316e+00,-2.783277034759521484e+00,3.437421098351478577e-02,7.633821487426757812e+00,4.478788375854492188e-02,-1.511454284191131592e-01,-1.632726669311523438e+00,1.283206343650817871e+00,5.038180947303771973e-02,3.809695482254028320e+00,-2.757433176040649414e+00,-3.841823711991310120e-02,6.401030540466308594e+00,-2.007525563240051270e-01,-2.712866663932800293e-02,5.937187671661376953e-01,1.340516209602355957e+00,2.015272378921508789e-01,7.421484589576721191e-02,-2.804666042327880859e+00,-1.415408682078123093e-02,9.103687286376953125e+00,1.935465335845947266e-01,-1.937761902809143066e-02,4.205507934093475342e-01,1.349326968193054199e+00,8.526152372360229492e-02,2.473828196525573730e-02,-2.794540405273437500e+00,-1.617609895765781403e-02,8.487292289733886719e+00,0.000000000000000000e+00,0.000000000000000000e+00,0.000000000000000000e+00,4.979939460754394531e-01,-1.879448294639587402e-01,9.597157478332519531e+00
2.816050767898559570e+00,8.106946945190429688e-03,-1.046391502022743225e-01,1.236914098262786865e-01,1.326684832572937012e+00,1.821496188640594482e-01,1.039007902145385742e+00,-2.782613515853881836e+00,3.437421098351478577e-02,7.776066780090332031e+00,4.324370622634887695e-02,-2.441580146551132202e-01,-1.682203173637390137e+00,1.284932136535644531e+00,1.472699046134948730e-01,3.809695482254028320e+00,-2.757401704788208008e+00,2.022012509405612946e-02,6.448445320129394531e+00,-2.018122822046279907e-01,-1.937761902809143066e-02,5.689804553985595703e-01,1.342120885848999023e+00,1.899006664752960205e-01,2.226445376873016357e-01,-2.804555416107177734e+00,2.426414936780929565e-02,9.293348312377929688e+00,1.933345794677734375e-01,-2.325314283370971680e-02,3.463359475135803223e-01,1.350689411163330078e+00,8.526152372360229492e-02,-4.947656393051147461e-02,-2.794492959976196289e+00,0.000000000000000000e+00,8.771782875061035156e+00,0.000000000000000000e+00,0.000000000000000000e+00,0.000000000000000000e+00,4.955997467041015625e-01,-1.915361359715461731e-02,9.651026725769042969e+00
2.838678598403930664e+00,5.321443080902099609e-03,-1.356433331966400146e-01,2.721211016178131104e-01,1.330711841583251953e+00,1.782740950584411621e-01,8.658398389816284180e-01,-2.780812740325927734e+00,1.031226366758346558e-01,7.681236743927001953e+00,4.009485244750976562e-02,-1.201412379741668701e-01,-1.632726669311523438e+00,1.288444280624389648e+00,1.782740950584411621e-01,3.710742235183715820e+00,-2.757338523864746094e+00,1.819811202585697174e-02,6.685520648956298828e+00,-2.036592066287994385e-01,-8.913704752922058105e-02,5.442422032356262207e-01,1.345572590827941895e+00,1.511454284191131592e-01,1.484296917915344238e-01,-2.804208040237426758e+00,-4.044024739414453506e-03,9.577837944030761719e+00,1.929409503936767578e-01,-3.487971425056457520e-02,4.452890753746032715e-01,1.353081345558166504e+00,3.487971425056457520e-02,4.947656393051147461e-02,-2.794240236282348633e+00,1.415408682078123093e-02,9.008857727050781250e+00,0.000000000000000000e+00,0.000000000000000000e+00,0.000000000000000000e+00,5.291185975074768066e-01,-5.027823522686958313e-02,9.579200744628906250e+00
2.857676267623901367e+00,2.929508686065673828e-03,-1.666475236415863037e-01,5.689804553985595703e-01,1.332982540130615234e+00,1.937761902809143066e-02,5.937187671661376953e-01,-2.778095722198486328e+00,2.709496915340423584e-01,8.107972145080566406e+00,3.788459300994873047e-02,-7.751047611236572266e-02,-1.979062557220458984e+00,1.290472984313964844e+00,1.162657141685485840e-02,3.290191411972045898e+00,-2.756501197814941406e+00,9.301257133483886719e-02,7.823481559753417969e+00,-2.048097550868988037e-01,2.712866663932800293e-02,5.442422032356262207e-01,1.347328662872314453e+00,-1.937761902809143066e-02,-2.226445376873016357e-01,-2.803023338317871094e+00,1.132326945662498474e-01,1.047872352600097656e+01,1.924565434455871582e-01,-3.487971425056457520e-02,4.205507934093475342e-01,1.354140996932983398e+00,-5.038180947303771973e-02,-2.226445376873016357e-01,-2.792944908142089844e+00,1.597389876842498779e-01,9.814913749694824219e+00,0.000000000000000000e+00,0.000000000000000000e+00,0.000000000000000000e+00,5.243301987648010254e-01,1.915361359715461731e-02,9.787496566772460938e+00
2.876132011413574219e+00,3.558993339538574219e-04,-1.511454284191131592e-01,8.411015868186950684e-01,1.332619309425354004e+00,0.000000000000000000e+00,1.484296917915344238e-01,-2.774241209030151367e+00,2.972358465194702148e-01,9.435592651367187500e+00,3.664320707321166992e-02,-5.038180947303771973e-02,-1.929585933685302734e+00,1.290351867675781250e+00,-5.425733327865600586e-02,2.943855524063110352e+00,-2.754968881607055664e+00,1.617610007524490356e-01,9.056272506713867188e+00,-2.047794759273529053e-01,3.487971425056457520e-02,5.689804553985595703e-01,1.346904754638671875e+00,-2.325314283370971680e-02,-5.442422032356262207e-01,-2.801032781600952148e+00,2.669056355953216553e-01,1.137961006164550781e+01,1.916693449020385742e-01,2.712866663932800293e-02,3.463359475135803223e-01,1.353414416313171387e+00,-1.278922855854034424e-01,-7.668867111206054688e-01,-2.791238784790039062e+00,1.961352080106735229e-01,1.128477954864501953e+01,0.000000000000000000e+00,0.000000000000000000e+00,0.000000000000000000e+00,-2.310404628515243530e-01,1.747767180204391479e-01,1.002452278137207031e+01
2.910181283950805664e+00,-3.428757190704345703e-03,-1.472699046134948730e-01,5.937187671661376953e-01,1.326684832572937012e+00,-2.092783004045486450e-01,6.679335832595825195e-01,-2.763072729110717773e+00,2.709496915340423584e-01,1.062096881866455078e+01,3.546237945556640625e-02,-6.975942850112915039e-02,-1.904847741127014160e+00,1.285507440567016602e+00,-2.441580146551132202e-01,3.166500091552734375e+00,-2.751635789871215820e+00,5.257232487201690674e-02,1.109511947631835938e+01,-2.040225416421890259e-01,6.975942850112915039e-02,7.916250228881835938e-01,1.340516209602355957e+00,-2.402824759483337402e-01,-1.731679737567901611e-01,-2.791665077209472656e+00,2.527515590190887451e-01,1.237532520294189453e+01,1.902160048484802246e-01,3.100419044494628906e-02,0.000000000000000000e+00,1.346813917160034180e+00,-2.015272378921508789e-01,-4.700273573398590088e-01,-2.786610126495361328e+00,1.415408700704574585e-01,1.308655071258544922e+01,0.000000000000000000e+00,0.000000000000000000e+00,0.000000000000000000e+00,-2.310404628515243530e-01,5.913678407669067383e-01,1.072243213653564453e+01
2.916479587554931641e+00,-3.822386264801025391e-03,-5.425733327865600586e-02,5.689804553985595703e-01,1.325231552124023438e+00,-2.519090473651885986e-01,6.926718950271606445e-01,-2.761429786682128906e+00,2.446634918451309204e-01,1.047872352600097656e+01,3.528076410293579102e-02,-1.937761902809143066e-02,-1.781156301498413086e+00,1.284296274185180664e+00,-2.596600949764251709e-01,3.339668035507202148e+00,-2.751398801803588867e+00,8.088050037622451782e-02,1.118994998931884766e+01,-2.037803232669830322e-01,8.526152372360229492e-02,6.679335832595825195e-01,1.339062929153442383e+00,-2.557845711708068848e-01,-2.473828196525573730e-02,-2.789516925811767578e+00,2.305094301700592041e-01,1.228049564361572266e+01,1.900040507316589355e-01,-1.550209522247314453e-02,-2.473828196525573730e-02,1.345330238342285156e+00,-3.061663806438446045e-01,-2.473828196525573730e-01,-2.786057472229003906e+00,3.639622405171394348e-02,1.327621173858642578e+01,0.000000000000000000e+00,0.000000000000000000e+00,0.000000000000000000e+00,3.830722719430923462e-02,3.579331636428833008e-01,1.040998935699462891e+01
2.936515331268310547e+00,-5.154609680175781250e-03,-1.123901903629302979e-01,9.647929668426513672e-01,1.317722678184509277e+00,-4.611873328685760498e-01,8.658398389816284180e-01,-2.751430273056030273e+00,7.117483615875244141e-01,1.104770469665527344e+01,3.422105312347412109e-02,-1.550209522247314453e-02,-1.880109429359436035e+00,1.278119683265686035e+00,-4.301831722259521484e-01,3.018070459365844727e+00,-2.746485948562622070e+00,4.124905467033386230e-01,1.209083557128906250e+01,-2.022361606359481812e-01,6.975942850112915039e-02,8.905781507492065430e-01,1.331463217735290527e+00,-4.185566008090972900e-01,-2.226445376873016357e-01,-2.781176090240478516e+00,5.803175568580627441e-01,1.318138122558593750e+01,1.883085370063781738e-01,-1.046391502022743225e-01,-7.421484589576721191e-02,1.338093996047973633e+00,-5.464488863945007324e-01,-4.205507934093475342e-01,-2.781839609146118164e+00,4.873049855232238770e-01,1.408226680755615234e+01,0.000000000000000000e+00,0.000000000000000000e+00,0.000000000000000000e+00,7.182605266571044922e-01,2.322375625371932983e-01,1.004367637634277344e+01
2.955538988113403320e+00,-6.607890129089355469e-03,-1.085146665573120117e-01,1.039007902145385742e+00,1.311122179031372070e+00,-5.193201899528503418e-01,4.205507934093475342e-01,-2.744495391845703125e+00,5.560534000396728516e-01,1.142702484130859375e+01,3.394854068756103516e-02,-9.301257133483886719e-02,-1.830632925033569336e+00,1.272851467132568359e+00,-4.301831722259521484e-01,2.646996259689331055e+00,-2.742820978164672852e+00,3.498081564903259277e-01,1.422451210021972656e+01,-2.015095055103302002e-01,1.666475236415863037e-01,1.162699222564697266e+00,1.325165510177612305e+00,-4.728139042854309082e-01,-3.710742294788360596e-01,-2.773782968521118164e+00,5.499873757362365723e-01,1.484090805053710938e+01,1.871882677078247070e-01,-3.487971425056457520e-02,-1.731679737567901611e-01,1.331463217735290527e+00,-4.456852376461029053e-01,-5.689804553985595703e-01,-2.776658058166503906e+00,3.659842610359191895e-01,1.597886848449707031e+01,0.000000000000000000e+00,0.000000000000000000e+00,0.000000000000000000e+00,-4.189853072166442871e-01,-7.422025501728057861e-02,1.144787502288818359e+01
2.978622436523437500e+00,-8.303463459014892578e-03,-1.240167617797851562e-01,9.400547146797180176e-01,1.300373673439025879e+00,-6.355859041213989258e-01,1.039007902145385742e+00,-2.730183362960815430e+00,8.108270168304443359e-01,1.265981578826904297e+01,3.307050466537475586e-02,-1.240167617797851562e-01,-1.632726669311523438e+00,1.262708425521850586e+00,-6.859677433967590332e-01,3.587050914764404297e+00,-2.734827756881713867e+00,5.479654073715209961e-01,1.427192687988281250e+01,-1.993295252323150635e-01,2.209048718214035034e-01,6.679335832595825195e-01,1.314719796180725098e+00,-6.278348565101623535e-01,-2.473828196525573730e-01,-2.761350870132446289e+00,7.157924175262451172e-01,1.474607753753662109e+01,1.848266124725341797e-01,-1.356433331966400146e-01,-7.421484589576721191e-02,1.320411920547485352e+00,-6.782166957855224609e-01,-1.484296917915344238e-01,-2.769059896469116211e+00,4.630408585071563721e-01,1.692716979980468750e+01,0.000000000000000000e+00,0.000000000000000000e+00,0.000000000000000000e+00,2.681505978107452393e-01,-3.687070608139038086e-01,1.154723453521728516e+01
2.997732877731323242e+00,-9.998977184295654297e-03,-4.263076186180114746e-02,1.039007902145385742e+00,1.283327460289001465e+00,-6.317104101181030273e-01,1.607988357543945312e+00,-2.705919265747070312e+00,1.029204249382019043e+00,1.123736476898193359e+01,3.155660629272460938e-02,-6.588390469551086426e-02,-1.583250045776367188e+00,1.247539401054382324e+00,-6.239593029022216797e-01,3.166500091552734375e+00,-2.719646930694580078e+00,7.744307518005371094e-01,1.346587181091308594e+01,-1.947576105594635010e-01,2.054027616977691650e-01,4.452890753746032715e-01,1.299944281578063965e+00,-6.123327612876892090e-01,-4.947656393051147461e-02,-2.739708900451660156e+00,8.411571979522705078e-01,1.436675739288330078e+01,1.811932921409606934e-01,-1.123901903629302979e-01,0.000000000000000000e+00,1.305000662803649902e+00,-6.355859041213989258e-01,-1.484296917915344238e-01,-2.755126953125000000e+00,7.016382813453674316e-01,1.597886848449707031e+01,0.000000000000000000e+00,0.000000000000000000e+00,0.000000000000000000e+00,9.576807022094726562e-01,-6.069301366806030273e-01,1.092953109741210938e+01
3.016565561294555664e+00,-1.081651449203491211e-02,-1.162657216191291809e-01,1.063746094703674316e+00,1.272578954696655273e+00,-6.549635529518127441e-01,1.187437534332275391e+00,-2.690043210983276367e+00,1.279933810234069824e+00,1.128477954864501953e+01,3.043633699417114258e-02,-1.395188570022583008e-01,-1.484296917915344238e+00,1.238425850868225098e+00,-5.890796184539794922e-01,2.943855524063110352e+00,-2.707656860351562500e+00,9.442797899246215820e-01,1.379777717590332031e+01,-1.916693001985549927e-01,3.022908568382263184e-01,4.205507934093475342e-01,1.290316104888916016e+00,-6.472124457359313965e-01,1.236914098262786865e-01,-2.727908611297607422e+00,9.523679018020629883e-01,1.479349231719970703e+01,1.789830327033996582e-01,-1.860251426696777344e-01,-1.484296917915344238e-01,1.295826554298400879e+00,-7.130963802337646484e-01,2.473828196525573730e-02,-2.745095729827880859e+00,7.461225986480712891e-01,1.702199935913085938e+01,0.000000000000000000e+00,0.000000000000000000e+00,0.000000000000000000e+00,7.050924301147460938e-01,-5.578489899635314941e-01,1.092953109741210938e+01
3.049958229064941406e+00,-1.090729236602783203e-02,-4.650628566741943359e-02,1.039007902145385742e+00,1.269611716270446777e+00,-6.045817136764526367e-01,1.484296917915344238e+00,-2.686789035797119141e+00,1.152547121047973633e+00,1.118994998931884766e+01,3.022438287734985352e-02,-8.913704752922058105e-02,-1.607988357543945312e+00,1.235791683197021484e+00,-7.518516182899475098e-01,3.364406347274780273e+00,-2.703628778457641602e+00,9.644999504089355469e-01,1.337104129791259766e+01,-1.906095892190933228e-01,3.061663806438446045e-01,2.721211016178131104e-01,1.287500262260437012e+00,-6.472124457359313965e-01,0.000000000000000000e+00,-2.723406553268432617e+00,1.104018807411193848e+00,1.403485202789306641e+01,1.782563924789428711e-01,-1.511454284191131592e-01,-2.473828196525573730e-02,1.293162107467651367e+00,-6.200838088989257812e-01,-7.421484589576721191e-02,-2.741620540618896484e+00,8.917074799537658691e-01,1.640560340881347656e+01,0.000000000000000000e+00,0.000000000000000000e+00,0.000000000000000000e+00,7.050924301147460938e-01,-5.578489899635314941e-01,1.092953109741210938e+01
3.056786060333251953e+00,-1.111924648284912109e-02,2.712866663932800293e-02,5.442422032356262207e-01,1.243815302848815918e+00,-5.386977791786193848e-01,1.830632925033569336e+00,-2.644958734512329102e+00,1.150525093078613281e+00,1.043130874633789062e+01,2.861970663070678711e-02,-6.588390469551086426e-02,-1.583250045776367188e+00,1.213416576385498047e+00,-5.348222851753234863e-01,3.364406347274780273e+00,-2.668591022491455078e+00,9.341697692871093750e-01,1.308655071258544922e+01,-1.813749372959136963e-01,2.519090473651885986e-01,-7.421484589576721191e-02,1.263459920883178711e+00,-4.650628864765167236e-01,4.947656393051147461e-02,-2.685888767242431641e+00,1.011006236076354980e+00,1.384519195556640625e+01,1.710503101348876953e-01,-2.209048718214035034e-01,3.215976655483245850e-01,1.269333720207214355e+00,-5.580754280090332031e-01,-1.731679737567901611e-01,-2.710531949996948242e+00,1.027182340621948242e+00,1.526764297485351562e+01,0.000000000000000000e+00,0.000000000000000000e+00,0.000000000000000000e+00,7.805097699165344238e-01,-4.393360018730163574e-01,1.039562416076660156e+01
3.076355695724487305e+00,-1.099812984466552734e-02,-6.588390469551086426e-02,8.658398389816284180e-01,1.229978442192077637e+00,-7.789802551269531250e-01,1.805894613265991211e+00,-2.619241237640380859e+00,1.435628890991210938e+00,1.057355403900146484e+01,2.789300680160522461e-02,-1.937761902809143066e-02,-1.706941485404968262e+00,1.201033115386962891e+00,-6.510879993438720703e-01,3.067546844482421875e+00,-2.645606517791748047e+00,1.461915016174316406e+00,1.256498527526855469e+01,-1.752285957336425781e-01,2.945398092269897461e-01,-4.947656393051147461e-02,1.250894784927368164e+00,-6.859677433967590332e-01,1.731679737567901611e-01,-2.663788795471191406e+00,1.168723225593566895e+00,1.474607753753662109e+01,1.664481163024902344e-01,-1.937761902809143066e-01,1.484296917915344238e-01,1.257434606552124023e+00,-7.247229814529418945e-01,-1.236914098262786865e-01,-2.689095497131347656e+00,1.399232625961303711e+00,1.559954833984375000e+01,0.000000000000000000e+00,0.000000000000000000e+00,0.000000000000000000e+00,9.696516990661621094e-01,-5.494692921638488770e-01,9.640253067016601562e+00
3.095633268356323242e+00,-1.136147975921630859e-02,-4.650628566741943359e-02,7.916250228881835938e-01,1.221228241920471191e+00,-7.130963802337646484e-01,1.311128973960876465e+00,-2.600474357604980469e+00,1.413386702537536621e+00,1.123736476898193359e+01,2.771133184432983398e-02,-3.100419044494628906e-02,-1.632726669311523438e+00,1.192737102508544922e+00,-7.092208862304687500e-01,3.117023468017578125e+00,-2.630014896392822266e+00,1.292065858840942383e+00,1.356070137023925781e+01,-1.717164069414138794e-01,3.061663806438446045e-01,-2.721211016178131104e-01,1.242447257041931152e+00,-7.751047611236572266e-01,-1.236914098262786865e-01,-2.648339271545410156e+00,1.320374131202697754e+00,1.498315238952636719e+01,1.636020541191101074e-01,-2.364069521427154541e-01,3.710742294788360596e-01,1.249108314514160156e+00,-8.409886956214904785e-01,-1.236914098262786865e-01,-2.674957275390625000e+00,1.083798766136169434e+00,1.754356575012207031e+01,0.000000000000000000e+00,0.000000000000000000e+00,0.000000000000000000e+00,2.118868529796600342e-01,-4.501099288463592529e-01,1.078228759765625000e+01
3.118423700332641602e+00,-1.157343387603759766e-02,-3.100419044494628906e-02,8.905781507492065430e-01,1.202607512474060059e+00,-8.177355527877807617e-01,1.979062557220458984e+00,-2.565910816192626953e+00,1.569081664085388184e+00,1.009940338134765625e+01,2.737832069396972656e-02,3.875523805618286133e-02,-1.682203173637390137e+00,1.174691677093505859e+00,-8.293620944023132324e-01,3.389144659042358398e+00,-2.596446275711059570e+00,1.411364674568176270e+00,1.303913593292236328e+01,-1.639956384897232056e-01,4.030544757843017578e-01,-4.452890753746032715e-01,1.223644971847534180e+00,-7.324740290641784668e-01,1.484296917915344238e-01,-2.613333225250244141e+00,1.423496723175048828e+00,1.394002151489257812e+01,1.561235189437866211e-01,-2.674111425876617432e-01,8.905781507492065430e-01,1.230154514312744141e+00,-7.130963802337646484e-01,-4.947656393051147461e-02,-2.643663406372070312e+00,1.401254653930664062e+00,1.545730304718017578e+01,0.000000000000000000e+00,0.000000000000000000e+00,0.000000000000000000e+00,6.691793799400329590e-01,-4.860229492187500000e-01,1.016697788238525391e+01
3.136564970016479492e+00,-1.136147975921630859e-02,2.325314283370971680e-02,6.431953310966491699e-01,1.188316583633422852e+00,-7.208474278450012207e-01,1.830632925033569336e+00,-2.541962623596191406e+00,1.472025036811828613e+00,1.062096881866455078e+01,2.686357498168945312e-02,-2.712866663932800293e-02,-1.509035229682922363e+00,1.161823749542236328e+00,-6.239593029022216797e-01,3.018070459365844727e+00,-2.571613550186157227e+00,1.544817566871643066e+00,1.237532520294189453e+01,-1.578190326690673828e-01,4.224320948123931885e-01,-7.916250228881835938e-01,1.210292577743530273e+00,-6.743411421775817871e-01,7.421484589576721191e-02,-2.591217517852783203e+00,1.407320618629455566e+00,1.365553188323974609e+01,1.507340669631958008e-01,-2.402824759483337402e-01,8.658398389816284180e-01,1.217014074325561523e+00,-7.673537135124206543e-01,-7.421484589576721191e-02,-2.618561983108520508e+00,1.478091120719909668e+00,1.555213356018066406e+01,0.000000000000000000e+00,0.000000000000000000e+00,0.000000000000000000e+00,9.313444495201110840e-01,-3.315969407558441162e-01,9.624691009521484375e+00
3.156573534011840820e+00,-1.142203807830810547e-02,-1.550209522247314453e-02,7.916250228881835938e-01,1.173359513282775879e+00,-7.983579039573669434e-01,1.929585933685302734e+00,-2.513512134552001953e+00,1.577169656753540039e+00,1.057355403900146484e+01,2.634888887405395508e-02,-9.301257133483886719e-02,-1.459558606147766113e+00,1.148350238800048828e+00,-7.247229814529418945e-01,3.240715026855468750e+00,-2.543447494506835938e+00,1.617609858512878418e+00,1.175893020629882812e+01,-1.520360112190246582e-01,3.294195234775543213e-01,-5.195039510726928711e-01,1.196274042129516602e+00,-7.402250170707702637e-01,2.226445376873016357e-01,-2.563114643096923828e+00,1.472025036811828613e+00,1.346587181091308594e+01,1.453750133514404297e-01,-2.170293331146240234e-01,6.926718950271606445e-01,1.204176425933837891e+00,-6.317104101181030273e-01,-1.731679737567901611e-01,-2.591801881790161133e+00,1.560993552207946777e+00,1.526764297485351562e+01,0.000000000000000000e+00,0.000000000000000000e+00,0.000000000000000000e+00,7.206547260284423828e-01,-3.280056416988372803e-01,9.732429504394531250e+00
3.187486171722412109e+00,-1.151287555694580078e-02,0.000000000000000000e+00,8.411015868186950684e-01,1.152801036834716797e+00,-6.627146005630493164e-01,2.003800868988037109e+00,-2.470307350158691406e+00,1.504377245903015137e+00,9.198517799377441406e+00,2.586442232131958008e-02,-6.200838088989257812e-02,-1.410082101821899414e+00,1.129396438598632812e+00,-6.820921897888183594e-01,3.141761779785156250e+00,-2.500337600708007812e+00,1.609521865844726562e+00,1.062096881866455078e+01,-1.449510753154754639e-01,2.364069521427154541e-01,-4.452890753746032715e-01,1.175776243209838867e+00,-6.704655885696411133e-01,2.473828196525573730e-01,-2.522421598434448242e+00,1.490223169326782227e+00,1.265981578826904297e+01,1.387745141983032227e-01,-2.092783004045486450e-01,6.679335832595825195e-01,1.183618068695068359e+00,-7.324740290641784668e-01,0.000000000000000000e+00,-2.551235437393188477e+00,1.599411845207214355e+00,1.455641746520996094e+01,0.000000000000000000e+00,0.000000000000000000e+00,0.000000000000000000e+00,5.985504388809204102e-01,-2.106897532939910889e-01,1.017894840240478516e+01
3.197763919830322266e+00,-1.145231723785400391e-02,-7.363495230674743652e-02,5.689804553985595703e-01,1.143414974212646484e+00,-6.820921897888183594e-01,2.300660133361816406e+00,-2.451619625091552734e+00,1.542795419692993164e+00,8.629537582397460938e+00,2.534973621368408203e-02,-9.301257133483886719e-02,-1.212175846099853516e+00,1.120525121688842773e+00,-6.239593029022216797e-01,3.710742235183715820e+00,-2.480149030685424805e+00,1.619632005691528320e+00,1.100028896331787109e+01,-1.417416632175445557e-01,2.519090473651885986e-01,-5.195039510726928711e-01,1.167298436164855957e+00,-5.619509220123291016e-01,5.195039510726928711e-01,-2.502454280853271484e+00,1.435628890991210938e+00,1.180634498596191406e+01,1.358072757720947266e-01,-2.364069521427154541e-01,7.421484589576721191e-01,1.176290869712829590e+00,-5.541998744010925293e-01,-4.947656393051147461e-02,-2.531931400299072266e+00,1.381034493446350098e+00,1.379777717590332031e+01,0.000000000000000000e+00,0.000000000000000000e+00,0.000000000000000000e+00,7.170634269714355469e-01,-4.082113802433013916e-01,9.349357604980468750e+00
3.216353178024291992e+00,-1.151287555694580078e-02,-2.712866663932800293e-02,8.905781507492065430e-01,1.132333397865295410e+00,-7.208474278450012207e-01,1.583250045776367188e+00,-2.427639722824096680e+00,1.819811344146728516e+00,8.629537582397460938e+00,2.471387386322021484e-02,-5.813286080956459045e-02,-1.286390662193298340e+00,1.110200524330139160e+00,-6.355859041213989258e-01,2.721210956573486328e+00,-2.455979585647583008e+00,1.815767168998718262e+00,1.076321411132812500e+01,-1.384716928005218506e-01,2.131538093090057373e-01,-2.721211016178131104e-01,1.156701326370239258e+00,-6.472124457359313965e-01,2.473828196525573730e-02,-2.479596138000488281e+00,1.645918130874633789e+00,1.261240100860595703e+01,1.321437358856201172e-01,-2.364069521427154541e-01,7.668867111206054688e-01,1.164210081100463867e+00,-7.751047611236572266e-01,0.000000000000000000e+00,-2.509088993072509766e+00,1.702534437179565430e+00,1.394002151489257812e+01,0.000000000000000000e+00,0.000000000000000000e+00,0.000000000000000000e+00,7.218518257141113281e-01,-1.807622313499450684e-01,9.576807022094726562e+00
3.235589504241943359e+00,-1.181566715240478516e-02,1.162657141685485840e-02,7.421484589576721191e-01,1.123007893562316895e+00,-6.820921897888183594e-01,2.003800868988037109e+00,-2.407451152801513672e+00,1.526619434356689453e+00,8.961442947387695312e+00,2.450191974639892578e-02,-2.712866663932800293e-02,-1.261652350425720215e+00,1.101904511451721191e+00,-6.123327612876892090e-01,2.919117212295532227e+00,-2.435522556304931641e+00,1.702534437179565430e+00,1.147443962097167969e+01,-1.357164382934570312e-01,2.906642854213714600e-01,-5.442422032356262207e-01,1.147618055343627930e+00,-6.317104101181030273e-01,1.731679737567901611e-01,-2.460513353347778320e+00,1.449782848358154297e+00,1.256498527526855469e+01,1.294187307357788086e-01,-1.550209522247314453e-01,6.926718950271606445e-01,1.155520439147949219e+00,-7.208474278450012207e-01,4.947656393051147461e-02,-2.488790035247802734e+00,1.520553350448608398e+00,1.403485202789306641e+01,0.000000000000000000e+00,0.000000000000000000e+00,0.000000000000000000e+00,2.082955539226531982e-01,-1.412578970193862915e-01,1.042914295196533203e+01
3.260793924331665039e+00,-1.196706295013427734e-02,1.162657141685485840e-02,9.647929668426513672e-01,1.113500833511352539e+00,-7.751047611236572266e-01,2.003800868988037109e+00,-2.387404918670654297e+00,1.601433753967285156e+00,8.629537582397460938e+00,2.441108226776123047e-02,0.000000000000000000e+00,-1.311128973960876465e+00,1.093093633651733398e+00,-7.751047611236572266e-01,3.166500091552734375e+00,-2.415792226791381836e+00,1.577169656753540039e+00,1.062096881866455078e+01,-1.324464529752731323e-01,2.829132378101348877e-01,-5.442422032356262207e-01,1.137868642807006836e+00,-7.518516182899475098e-01,4.452890753746032715e-01,-2.440877676010131836e+00,1.700512409210205078e+00,1.161668491363525391e+01,1.267542839050292969e-01,-1.123901903629302979e-01,5.937187671661376953e-01,1.146285772323608398e+00,-7.557271122932434082e-01,7.421484589576721191e-02,-2.469438552856445312e+00,1.647940039634704590e+00,1.384519195556640625e+01,0.000000000000000000e+00,0.000000000000000000e+00,0.000000000000000000e+00,6.715735793113708496e-01,-5.530605912208557129e-01,9.774328231811523438e+00
3.278118848800659180e+00,-1.178538799285888672e-02,2.712866663932800293e-02,5.937187671661376953e-01,1.085130691528320312e+00,-6.820921897888183594e-01,2.028539180755615234e+00,-2.330551624298095703e+00,1.702534437179565430e+00,8.107972145080566406e+00,2.371472120285034180e-02,-3.100419044494628906e-02,-1.212175846099853516e+00,1.067842245101928711e+00,-7.208474278450012207e-01,2.869640827178955078e+00,-2.359681367874145508e+00,1.791503071784973145e+00,9.862328529357910156e+00,-1.227879226207733154e-01,2.790377140045166016e-01,-7.916250228881835938e-01,1.110528111457824707e+00,-7.518516182899475098e-01,5.689804553985595703e-01,-2.382239341735839844e+00,1.654006123542785645e+00,1.128477954864501953e+01,1.185491085052490234e-01,-2.829132378101348877e-01,8.658398389816284180e-01,1.119520425796508789e+00,-7.247229814529418945e-01,2.473828196525573730e-02,-2.409552335739135742e+00,1.704556584358215332e+00,1.308655071258544922e+01,0.000000000000000000e+00,0.000000000000000000e+00,0.000000000000000000e+00,8.463503122329711914e-01,-4.477157294750213623e-01,8.841787338256835938e+00
3.296041727066040039e+00,-1.184594631195068359e-02,7.751047611236572266e-03,8.905781507492065430e-01,1.073928117752075195e+00,-6.782166957855224609e-01,1.484296917915344238e+00,-2.303854703903198242e+00,1.670182228088378906e+00,8.202801704406738281e+00,2.344220876693725586e-02,-6.200838088989257812e-02,-1.385343790054321289e+00,1.056033968925476074e+00,-6.665900945663452148e-01,2.597519636154174805e+00,-2.332289218902587891e+00,1.789481043815612793e+00,9.814913749694824219e+00,-1.193060055375099182e-01,1.666475236415863037e-01,-4.700273573398590088e-01,1.097629904747009277e+00,-7.169718742370605469e-01,2.473828196525573730e-01,-2.356237411499023438e+00,1.692424416542053223e+00,1.142702484130859375e+01,1.153699159622192383e-01,-1.976517289876937866e-01,5.937187671661376953e-01,1.106894731521606445e+00,-7.402250170707702637e-01,7.421484589576721191e-02,-2.383976936340332031e+00,1.722754597663879395e+00,1.327621173858642578e+01,0.000000000000000000e+00,0.000000000000000000e+00,0.000000000000000000e+00,4.848258495330810547e-01,-3.435679376125335693e-01,8.939949035644531250e+00
3.330000877380371094e+00,-1.239091157913208008e-02,-3.875523805618286133e-03,8.411015868186950684e-01,1.050796031951904297e+00,-6.588390469551086426e-01,2.127492189407348633e+00,-2.252546310424804688e+00,1.368902444839477539e+00,8.250217437744140625e+00,2.316969633102416992e-02,-8.138599991798400879e-02,-1.261652350425720215e+00,1.033719420433044434e+00,-6.084572076797485352e-01,2.943855524063110352e+00,-2.282276153564453125e+00,1.502355217933654785e+00,9.672668457031250000e+00,-1.136138290166854858e-01,1.782740950584411621e-01,-1.731679737567901611e-01,1.073680400848388672e+00,-6.278348565101623535e-01,3.710742294788360596e-01,-2.305055141448974609e+00,1.522575378417968750e+00,1.062096881866455078e+01,1.093447208404541016e-01,-1.743985712528228760e-01,4.205507934093475342e-01,1.082127690315246582e+00,-6.743411421775817871e-01,2.473828196525573730e-02,-2.331641674041748047e+00,1.534707427024841309e+00,1.284947586059570312e+01,0.000000000000000000e+00,0.000000000000000000e+00,0.000000000000000000e+00,2.837128937244415283e-01,-3.854664862155914307e-01,9.259574890136718750e+00
3.336189508438110352e+00,-1.239091157913208008e-02,0.000000000000000000e+00,7.668867111206054688e-01,1.047526121139526367e+00,-6.084572076797485352e-01,2.152230501174926758e+00,-2.247475385665893555e+00,1.281955957412719727e+00,8.250217437744140625e+00,2.313947677612304688e-02,1.937761902809143066e-02,-1.187437534332275391e+00,1.030479788780212402e+00,-6.278348565101623535e-01,3.117023468017578125e+00,-2.274977922439575195e+00,1.465958952903747559e+00,9.672668457031250000e+00,-1.128266155719757080e-01,1.627719998359680176e-01,-2.721211016178131104e-01,1.070440649986267090e+00,-5.658264756202697754e-01,3.463359475135803223e-01,-2.295403480529785156e+00,1.512465357780456543e+00,1.024164867401123047e+01,1.084666252136230469e-01,-2.209048718214035034e-01,5.442422032356262207e-01,1.078827500343322754e+00,-6.278348565101623535e-01,2.226445376873016357e-01,-2.324011802673339844e+00,1.362836360931396484e+00,1.247015571594238281e+01,0.000000000000000000e+00,0.000000000000000000e+00,0.000000000000000000e+00,4.118026793003082275e-01,-2.226607650518417358e-01,8.961497306823730469e+00
3.356436729431152344e+00,-1.263314485549926758e-02,-8.138599991798400879e-02,1.063746094703674316e+00,1.033749818801879883e+00,-6.084572076797485352e-01,1.682203173637390137e+00,-2.218329906463623047e+00,1.722754597663879395e+00,7.681236743927001953e+00,2.256417274475097656e-02,0.000000000000000000e+00,-1.286390662193298340e+00,1.017853975296020508e+00,-5.852040648460388184e-01,2.325398445129394531e+00,-2.245105743408203125e+00,1.635808110237121582e+00,9.814913749694824219e+00,-1.102227494120597839e-01,1.317678093910217285e-01,1.731679737567901611e-01,1.056513071060180664e+00,-7.014698386192321777e-01,3.463359475135803223e-01,-2.266779184341430664e+00,1.641874194145202637e+00,1.147443962097167969e+01,1.048030853271484375e-01,-8.526152372360229492e-02,2.226445376873016357e-01,1.065384268760681152e+00,-7.479761242866516113e-01,-4.947656393051147461e-02,-2.293697357177734375e+00,1.704556584358215332e+00,1.280206108093261719e+01,0.000000000000000000e+00,0.000000000000000000e+00,0.000000000000000000e+00,4.513070285320281982e-01,-5.626374110579490662e-02,8.872911453247070312e+00
3.375500917434692383e+00,-1.317811012268066406e-02,-5.038180947303771973e-02,9.647929668426513672e-01,1.024605989456176758e+00,-7.092208862304687500e-01,1.484296917915344238e+00,-2.198599576950073242e+00,1.381034493446350098e+00,1.005198860168457031e+01,2.259445190429687500e-02,-3.875523805618286133e-02,-1.311128973960876465e+00,1.009436845779418945e+00,-6.588390469551086426e-01,2.449090003967285156e+00,-2.224727630615234375e+00,1.599411845207214355e+00,1.085804462432861328e+01,-1.084666550159454346e-01,2.092783004045486450e-01,4.947656393051147461e-02,1.046824216842651367e+00,-6.859677433967590332e-01,2.226445376873016357e-01,-2.247017383575439453e+00,1.455848932266235352e+00,1.218566513061523438e+01,1.026836633682250977e-01,-1.937761902809143066e-01,2.226445376873016357e-01,1.056936860084533691e+00,-7.828558087348937988e-01,-7.421484589576721191e-02,-2.273366689682006836e+00,1.556949615478515625e+00,1.365553188323974609e+01,0.000000000000000000e+00,0.000000000000000000e+00,0.000000000000000000e+00,1.436521019786596298e-02,-1.089361757040023804e-01,1.032260036468505859e+01
3.401486158370971680e+00,-1.375341415405273438e-02,-6.588390469551086426e-02,1.039007902145385742e+00,1.011828899383544922e+00,-7.712292671203613281e-01,1.583250045776367188e+00,-2.170938968658447266e+00,1.528641462326049805e+00,9.435592651367187500e+00,2.232193946838378906e-02,-1.395188570022583008e-01,-1.286390662193298340e+00,9.974772930145263672e-01,-6.975942850112915039e-01,2.078015804290771484e+00,-2.198631286621093750e+00,1.496289134025573730e+00,1.100028896331787109e+01,-1.056811213493347168e-01,2.170293331146240234e-01,7.421484589576721191e-02,1.033138751983642578e+00,-7.557271122932434082e-01,1.484296917915344238e-01,-2.215991973876953125e+00,1.609521865844726562e+00,1.156927013397216797e+01,9.983754158020019531e-02,-1.860251426696777344e-01,1.484296917915344238e-01,1.041949510574340820e+00,-7.983579039573669434e-01,-4.947656393051147461e-02,-2.242436170578002930e+00,1.779370903968811035e+00,1.261240100860595703e+01,0.000000000000000000e+00,0.000000000000000000e+00,0.000000000000000000e+00,6.224924325942993164e-02,-1.017535701394081116e-01,9.818621635437011719e+00
3.416231393814086914e+00,-1.396536827087402344e-02,-3.100419044494628906e-02,7.916250228881835938e-01,9.946614503860473633e-01,-6.355859041213989258e-01,1.558511734008789062e+00,-2.137876033782958984e+00,1.550883531570434570e+00,7.301916122436523438e+00,2.174669504165649414e-02,-2.712866663932800293e-02,-9.647929668426513672e-01,9.808548688888549805e-01,-6.743411421775817871e-01,2.251183748245239258e+00,-2.163798809051513672e+00,1.554927587509155273e+00,1.005198860168457031e+01,-1.017450392246246338e-01,1.201412379741668701e-01,1.731679737567901611e-01,1.016516447067260742e+00,-6.200838088989257812e-01,6.431953310966491699e-01,-2.181617736816406250e+00,1.445738911628723145e+00,9.862328529357910156e+00,9.623456001281738281e-02,-8.526152372360229492e-02,-4.947656393051147461e-02,1.024933457374572754e+00,-7.130963802337646484e-01,2.721211016178131104e-01,-2.206324338912963867e+00,1.508421301841735840e+00,1.294430637359619141e+01,0.000000000000000000e+00,0.000000000000000000e+00,0.000000000000000000e+00,4.944026470184326172e-01,-2.214636504650115967e-01,9.184157371520996094e+00
3.436115741729736328e+00,-1.420754194259643555e-02,1.162657141685485840e-02,1.162699222564697266e+00,9.791290760040283203e-01,-6.937187314033508301e-01,1.682203173637390137e+00,-2.105997562408447266e+00,1.524597406387329102e+00,8.487292289733886719e+00,2.114111185073852539e-02,-8.138599991798400879e-02,-1.360605478286743164e+00,9.662005901336669922e-01,-7.596026659011840820e-01,2.350136756896972656e+00,-2.133026361465454102e+00,1.641874194145202637e+00,9.577837944030761719e+00,-9.838423132896423340e-02,1.511454284191131592e-01,3.710742294788360596e-01,9.992884397506713867e-01,-7.441005706787109375e-01,7.421484589576721191e-01,-2.147701740264892578e+00,1.649962186813354492e+00,1.062096881866455078e+01,9.320676326751708984e-02,-9.301257133483886719e-02,-1.731679737567901611e-01,1.008523106575012207e+00,-8.526152372360229492e-01,2.721211016178131104e-01,-2.172992706298828125e+00,1.769260883331298828e+00,1.204341983795166016e+01,0.000000000000000000e+00,0.000000000000000000e+00,0.000000000000000000e+00,3.794809579849243164e-01,-3.160346150398254395e-01,9.184157371520996094e+00
3.462819814682006836e+00,-1.429837942123413086e-02,-6.975942850112915039e-02,1.162699222564697266e+00,9.781299829483032227e-01,-7.208474278450012207e-01,1.781156301498413086e+00,-2.102253913879394531e+00,1.615587949752807617e+00,7.965726852416992188e+00,2.117139101028442383e-02,-1.937761902809143066e-02,-1.212175846099853516e+00,9.653224945068359375e-01,-7.169718742370605469e-01,2.523304700851440430e+00,-2.129235029220581055e+00,1.676248311996459961e+00,9.483008384704589844e+00,-9.823285043239593506e-02,1.317678093910217285e-01,4.205507934093475342e-01,9.982287287712097168e-01,-8.061089515686035156e-01,6.926718950271606445e-01,-2.143815517425537109e+00,1.672204256057739258e+00,1.043130874633789062e+01,9.305536746978759766e-02,-1.123901903629302979e-01,-2.721211016178131104e-01,1.007554173469543457e+00,-7.828558087348937988e-01,3.710742294788360596e-01,-2.169153928756713867e+00,1.730842709541320801e+00,1.204341983795166016e+01,0.000000000000000000e+00,0.000000000000000000e+00,0.000000000000000000e+00,3.794809579849243164e-01,-3.160346150398254395e-01,9.184157371520996094e+00
3.476316928863525391e+00,-1.429837942123413086e-02,4.650628566741943359e-02,9.400547146797180176e-01,9.529087543487548828e-01,-7.130963802337646484e-01,1.459558606147766113e+00,-2.049381256103515625e+00,1.445738911628723145e+00,8.629537582397460938e+00,2.077782154083251953e-02,-9.688809514045715332e-02,-1.088484406471252441e+00,9.406766295433044434e-01,-7.208474278450012207e-01,2.201707124710083008e+00,-2.076552152633666992e+00,1.451804995536804199e+00,1.062096881866455078e+01,-9.353983402252197266e-02,7.363495230674743652e-02,5.689804553985595703e-01,9.714633822441101074e-01,-6.704655885696411133e-01,3.463359475135803223e-01,-2.090358734130859375e+00,1.552905559539794922e+00,1.076321411132812500e+01,8.833205699920654297e-02,-8.913704752922058105e-02,-3.463359475135803223e-01,9.806374311447143555e-01,-7.712292671203613281e-01,1.236914098262786865e-01,-2.115760326385498047e+00,1.528641462326049805e+00,1.223308086395263672e+01,0.000000000000000000e+00,0.000000000000000000e+00,0.000000000000000000e+00,4.070142805576324463e-01,-3.112462162971496582e-01,8.944737434387207031e+00
3.495919227600097656e+00,-1.441949605941772461e-02,-7.751047611236572266e-02,9.400547146797180176e-01,9.391324520111083984e-01,-7.092208862304687500e-01,1.410082101821899414e+00,-2.022589683532714844e+00,1.704556584358215332e+00,7.823481559753417969e+00,2.065670490264892578e-02,-3.875523805618286133e-02,-1.162699222564697266e+00,9.269003272056579590e-01,-7.053453326225280762e-01,2.300660133361816406e+00,-2.047975540161132812e+00,1.397210597991943359e+00,1.047872352600097656e+01,-9.096623957157135010e-02,1.860251426696777344e-01,7.668867111206054688e-01,9.571421146392822266e-01,-6.394614577293395996e-01,5.195039510726928711e-01,-2.060186386108398438e+00,1.688380479812622070e+00,1.000457382202148438e+01,8.518326282501220703e-02,-1.240167617797851562e-01,-3.215976655483245850e-01,9.672850370407104492e-01,-7.983579039573669434e-01,2.721211016178131104e-01,-2.085114002227783203e+00,1.708600521087646484e+00,1.142702484130859375e+01,0.000000000000000000e+00,0.000000000000000000e+00,0.000000000000000000e+00,2.561795711517333984e-01,-4.345476031303405762e-01,9.136273384094238281e+00
3.515583038330078125e+00,-1.451033353805541992e-02,-1.085146665573120117e-01,9.895312786102294922e-01,9.312603473663330078e-01,-6.627146005630493164e-01,1.212175846099853516e+00,-2.003554344177246094e+00,1.546839475631713867e+00,8.771782875061035156e+00,2.065670490264892578e-02,-3.875523805618286133e-03,-1.286390662193298340e+00,9.193612337112426758e-01,-6.627146005630493164e-01,1.781156301498413086e+00,-2.031609773635864258e+00,1.502355217933654785e+00,1.076321411132812500e+01,-8.957347273826599121e-02,2.054027616977691650e-01,6.431953310966491699e-01,9.497241377830505371e-01,-6.820921897888183594e-01,5.937187671661376953e-01,-2.043536424636840820e+00,1.383056521415710449e+00,1.019423389434814453e+01,8.336663246154785156e-02,-1.472699046134948730e-01,-3.463359475135803223e-01,9.588073492050170898e-01,-7.014698386192321777e-01,4.205507934093475342e-01,-2.068243026733398438e+00,1.484157085418701172e+00,1.194859027862548828e+01,0.000000000000000000e+00,0.000000000000000000e+00,0.000000000000000000e+00,3.711012750864028931e-02,-2.286462634801864624e-01,9.604340553283691406e+00
3.538210868835449219e+00,-1.444977521896362305e-02,-5.038180947303771973e-02,1.113222718238830566e+00,9.176959991455078125e-01,-7.983579039573669434e-01,1.187437534332275391e+00,-1.977915763854980469e+00,1.470003128051757812e+00,8.060556411743164062e+00,2.077782154083251953e-02,-5.425733327865600586e-02,-1.212175846099853516e+00,9.062813520431518555e-01,-6.743411421775817871e-01,1.904847741127014160e+00,-2.005813360214233398e+00,1.425518751144409180e+00,9.957158088684082031e+00,-8.690905570983886719e-02,1.433943808078765869e-01,9.647929668426513672e-01,9.349486827850341797e-01,-6.627146005630493164e-01,-2.473828196525573730e-02,-2.013601303100585938e+00,1.524597406387329102e+00,9.672668457031250000e+00,8.049023151397705078e-02,-6.200838088989257812e-02,-5.195039510726928711e-01,9.432144165039062500e-01,-7.324740290641784668e-01,-4.947656393051147461e-02,-2.040108680725097656e+00,1.403276562690734863e+00,1.185375976562500000e+01,0.000000000000000000e+00,0.000000000000000000e+00,0.000000000000000000e+00,-4.070143029093742371e-02,-4.692635238170623779e-01,9.631873130798339844e+00
3.556273221969604492e+00,-1.448005437850952148e-02,-3.100419044494628906e-02,9.895312786102294922e-01,8.998322486877441406e-01,-7.596026659011840820e-01,1.459558606147766113e+00,-1.941803932189941406e+00,1.467980980873107910e+00,8.392461776733398438e+00,2.059614658355712891e-02,-3.875523805618286133e-03,-1.063746094703674316e+00,8.884478807449340820e-01,-7.208474278450012207e-01,2.078015804290771484e+00,-1.966889619827270508e+00,1.769260883331298828e+00,9.245932579040527344e+00,-8.357852697372436523e-02,1.550209522247314453e-01,9.647929668426513672e-01,9.169033169746398926e-01,-7.867313027381896973e-01,5.937187671661376953e-01,-1.976114988327026367e+00,1.605477929115295410e+00,1.009940338134765625e+01,7.706892490386962891e-02,-9.688809514045715332e-02,-6.926718950271606445e-01,9.248662590980529785e-01,-7.751047611236572266e-01,3.463359475135803223e-01,-2.001863956451416016e+00,1.730842709541320801e+00,1.118994998931884766e+01,0.000000000000000000e+00,0.000000000000000000e+00,0.000000000000000000e+00,1.795651316642761230e-01,-9.457096457481384277e-02,9.642647743225097656e+00
3.576469421386718750e+00,-1.463145017623901367e-02,-1.085146665573120117e-01,1.088484406471252441e+00,8.864192962646484375e-01,-6.898432374000549316e-01,1.187437534332275391e+00,-1.913922309875488281e+00,1.599411845207214355e+00,7.823481559753417969e+00,2.038419246673583984e-02,-5.425733327865600586e-02,-1.162699222564697266e+00,8.753377199172973633e-01,-8.254866003990173340e-01,2.201707124710083008e+00,-1.938328742980957031e+00,1.710622429847717285e+00,9.388177871704101562e+00,-8.100493252277374268e-02,1.162657216191291809e-01,7.916250228881835938e-01,9.033086895942687988e-01,-6.975942850112915039e-01,5.195039510726928711e-01,-1.947775125503540039e+00,1.605477929115295410e+00,1.005198860168457031e+01,7.500994205474853516e-02,-1.046391502022743225e-01,-8.658398389816284180e-01,9.106963872909545898e-01,-8.061089515686035156e-01,3.463359475135803223e-01,-1.973176717758178711e+00,1.641874194145202637e+00,1.147443962097167969e+01,0.000000000000000000e+00,0.000000000000000000e+00,0.000000000000000000e+00,1.999158412218093872e-01,-2.106897532939910889e-01,9.732429504394531250e+00
3.606652498245239258e+00,-1.451033353805541992e-02,0.000000000000000000e+00,7.916250228881835938e-01,8.687069416046142578e-01,-6.433369517326354980e-01,1.929585933685302734e+00,-1.877699851989746094e+00,1.613565921783447266e+00,7.207086086273193359e+00,2.029335498809814453e-02,3.100419044494628906e-02,-1.187437534332275391e+00,8.584125638008117676e-01,-7.130963802337646484e-01,2.251183748245239258e+00,-1.901790261268615723e+00,1.619632005691528320e+00,8.866612434387207031e+00,-7.791662216186523438e-02,2.325314432382583618e-01,1.162699222564697266e+00,8.856568932533264160e-01,-6.162083148956298828e-01,5.442422032356262207e-01,-1.910731315612792969e+00,1.660072207450866699e+00,9.388177871704101562e+00,7.243645191192626953e-02,-1.123901903629302979e-01,-1.113222718238830566e+00,8.924995660781860352e-01,-8.254866003990173340e-01,3.710742294788360596e-01,-1.935169219970703125e+00,1.736908674240112305e+00,1.038389396667480469e+01,0.000000000000000000e+00,0.000000000000000000e+00,0.000000000000000000e+00,3.244143426418304443e-01,-2.525882720947265625e-01,9.465476036071777344e+00
3.616395711898803711e+00,-1.429837942123413086e-02,1.937761902809143066e-02,7.916250228881835938e-01,8.575950860977172852e-01,-6.743411421775817871e-01,2.078015804290771484e+00,-1.852440476417541504e+00,1.429562807083129883e+00,6.401030540466308594e+00,2.005112171173095703e-02,-3.100419044494628906e-02,-1.063746094703674316e+00,8.465740680694580078e-01,-6.472124457359313965e-01,2.646996259689331055e+00,-1.876041173934936523e+00,1.500333189964294434e+00,7.870896816253662109e+00,-7.597886025905609131e-02,1.085146665573120117e-01,1.113222718238830566e+00,8.747872710227966309e-01,-7.247229814529418945e-01,9.647929668426513672e-01,-1.884871602058410645e+00,1.472025036811828613e+00,8.250217437744140625e+00,7.077109813690185547e-02,-1.007636189460754395e-01,-9.895312786102294922e-01,8.815693855285644531e-01,-6.510879993438720703e-01,6.926718950271606445e-01,-1.909167528152465820e+00,1.435628890991210938e+00,1.000457382202148438e+01,0.000000000000000000e+00,0.000000000000000000e+00,0.000000000000000000e+00,4.728548228740692139e-01,-3.268085420131683350e-01,9.051279067993164062e+00
3.636224269866943359e+00,-1.423782110214233398e-02,-3.875523805618286133e-02,9.647929668426513672e-01,8.434554934501647949e-01,-6.549635529518127441e-01,1.484296917915344238e+00,-1.826043725013732910e+00,1.724776625633239746e+00,7.491576194763183594e+00,1.983922719955444336e-02,0.000000000000000000e+00,-1.162699222564697266e+00,8.340088725090026855e-01,-6.355859041213989258e-01,1.979062557220458984e+00,-1.849786639213562012e+00,1.791503071784973145e+00,8.250217437744140625e+00,-7.407137751579284668e-02,1.317678093910217285e-01,1.583250045776367188e+00,8.617981672286987305e-01,-7.712292671203613281e-01,5.689804553985595703e-01,-1.858190536499023438e+00,1.668160319328308105e+00,9.293348312377929688e+00,6.880307197570800781e-02,-1.162657141685485840e-02,-1.410082101821899414e+00,8.688830733299255371e-01,-7.596026659011840820e-01,5.442422032356262207e-01,-1.882107257843017578e+00,1.678270339965820312e+00,1.066838455200195312e+01,0.000000000000000000e+00,0.000000000000000000e+00,0.000000000000000000e+00,2.968810200691223145e-01,-3.303998410701751709e-01,8.682572364807128906e+00
